;FLAVOR:Marlin
;TIME:35986
;Filament used: 30.1728m
;Layer height: 0.2
;MINX:10.049
;MINY:10.727
;MINZ:0.2
;MAXX:222.852
;MAXY:223.531
;MAXZ:10
;Generated with Cura_SteamEngine 5.2.1
M140 S60
M105
M190 S60
M104 S200
M105
M109 S200
M82 ;absolute extrusion mode
M201 X500.00 Y500.00 Z100.00 E5000.00 ;Setup machine max acceleration
M203 X500.00 Y500.00 Z10.00 E50.00 ;Setup machine max feedrate
M204 P500.00 R1000.00 T500.00 ;Setup Print/Retract/Travel acceleration
M205 X8.00 Y8.00 Z0.40 E5.00 ;Setup Jerk
M220 S100 ;Reset Feedrate
M221 S100 ;Reset Flowrate

G28 ;Home

G92 E0 ;Reset Extruder
G1 Z2.0 F3000 ;Move Z Axis up
G1 X10.1 Y20 Z0.28 F5000.0 ;Move to start position
G1 X10.1 Y200.0 Z0.28 F1500.0 E15 ;Draw the first line
G1 X10.4 Y200.0 Z0.28 F5000.0 ;Move to side a little
G1 X10.4 Y20 Z0.28 F1500.0 E30 ;Draw the second line
G92 E0 ;Reset Extruder
G1 Z2.0 F3000 ;Move Z Axis up

G92 E0
G92 E0
G1 F1500 E-6.5
;LAYER_COUNT:50
;LAYER:0
M107
G0 F6000 X48.628 Y49.493 Z0.2
;TYPE:SKIRT
G1 F1500 E0
G1 F1200 X49.537 Y48.61 E0.04215
G1 X49.811 Y48.353 E0.05464
G1 X50.364 Y47.859 E0.07931
G1 X51.283 Y47.079 E0.1194
G1 X51.907 Y46.577 E0.14604
G1 X53.151 Y45.651 E0.19762
G1 X53.766 Y45.219 E0.22261
G1 X54.091 Y45.003 E0.23559
G1 X55.447 Y44.143 E0.289
G1 X56.121 Y43.751 E0.31493
G1 X57.147 Y43.188 E0.35386
G1 X57.487 Y43.01 E0.36662
G1 X58.173 Y42.67 E0.39209
G1 X59.309 Y42.143 E0.43374
G1 X59.931 Y41.872 E0.4563
G1 X60.31 Y41.718 E0.46991
G1 X61.468 Y41.273 E0.51117
G1 X62.232 Y41.002 E0.53813
G1 X62.592 Y40.884 E0.55073
G1 X63.66 Y40.555 E0.5879
G1 X64.027 Y40.449 E0.60061
G1 X65.712 Y39.995 E0.65865
G1 X177.317 Y11.922 E4.48628
G1 X178.996 Y11.532 E4.54361
G1 X179.776 Y11.37 E4.57011
G1 X180.16 Y11.3 E4.58309
G1 X181.411 Y11.094 E4.62526
G1 X182.106 Y10.997 E4.6486
G1 X182.504 Y10.952 E4.66192
G1 X183.822 Y10.828 E4.70595
G1 X184.555 Y10.778 E4.73039
G1 X184.941 Y10.761 E4.74324
G1 X186.216 Y10.729 E4.78566
G1 X186.618 Y10.727 E4.79903
G1 X187.313 Y10.74 E4.82215
G1 X188.637 Y10.797 E4.86622
G1 X189.048 Y10.823 E4.87992
G1 X189.737 Y10.884 E4.90293
G1 X191.026 Y11.03 E4.94607
G1 X191.742 Y11.129 E4.97011
G1 X193.432 Y11.433 E5.02723
G1 X193.832 Y11.514 E5.0408
G1 X194.551 Y11.68 E5.06534
G1 X195.77 Y11.993 E5.1072
G1 X196.487 Y12.196 E5.13199
G1 X196.863 Y12.313 E5.14508
G1 X198.054 Y12.708 E5.18682
G1 X198.726 Y12.95 E5.21058
G1 X199.081 Y13.088 E5.22324
G1 X200.331 Y13.599 E5.26816
G1 X200.966 Y13.877 E5.29121
G1 X202.521 Y14.638 E5.34879
G1 X203.168 Y14.977 E5.37309
G1 X204.624 Y15.818 E5.42901
G1 X205.164 Y16.149 E5.45008
G1 X205.502 Y16.369 E5.46349
G1 X206.614 Y17.122 E5.50816
G1 X206.948 Y17.358 E5.52176
G1 X207.537 Y17.796 E5.54618
G1 X208.548 Y18.588 E5.58889
G1 X208.852 Y18.835 E5.60192
G1 X209.387 Y19.294 E5.62536
G1 X210.37 Y20.181 E5.6694
G1 X210.883 Y20.668 E5.69293
G1 X211.154 Y20.939 E5.70568
G1 X212.066 Y21.884 E5.74936
G1 X212.578 Y22.443 E5.77457
G1 X213.653 Y23.712 E5.82988
G1 X213.895 Y24.01 E5.84265
G1 X214.334 Y24.581 E5.86661
G1 X215.114 Y25.652 E5.91068
G1 X215.496 Y26.203 E5.93298
G1 X215.719 Y26.544 E5.94653
G1 X216.411 Y27.645 E5.98978
G1 X216.615 Y27.983 E6.00291
G1 X216.979 Y28.624 E6.02743
G1 X217.599 Y29.783 E6.07114
G1 X217.918 Y30.415 E6.09469
G1 X218.091 Y30.784 E6.10825
G1 X218.625 Y31.975 E6.15166
G1 X218.909 Y32.651 E6.17605
G1 X219.051 Y33.015 E6.18904
G1 X219.496 Y34.22 E6.23176
G1 X219.629 Y34.602 E6.24522
G1 X219.837 Y35.254 E6.26798
G1 X220.206 Y36.513 E6.31162
G1 X220.383 Y37.177 E6.33447
G1 X220.474 Y37.562 E6.34763
G1 X220.841 Y39.269 E6.4057
G1 X220.962 Y39.971 E6.4294
G1 X221.199 Y41.616 E6.48467
G1 X221.272 Y42.317 E6.50812
G1 X221.372 Y43.596 E6.55078
G1 X221.397 Y44.021 E6.56494
G1 X221.458 Y45.572 E6.61657
G1 X222.843 Y106.512 E8.64397
G1 X222.852 Y108.239 E8.70141
G1 X222.835 Y109.077 E8.72929
G1 X222.751 Y110.602 E8.78008
G1 X222.721 Y110.988 E8.79296
G1 X222.647 Y111.714 E8.81723
G1 X222.435 Y113.332 E8.87151
G1 X222.313 Y114.053 E8.89583
G1 X222.077 Y115.263 E8.93683
G1 X221.989 Y115.669 E8.95065
G1 X221.815 Y116.388 E8.97525
G1 X221.503 Y117.554 E9.0154
G1 X221.288 Y118.285 E9.04074
G1 X221.17 Y118.653 E9.0536
G1 X220.788 Y119.774 E9.09299
G1 X220.521 Y120.497 E9.11862
G1 X219.897 Y122.004 E9.17287
G1 X219.596 Y122.678 E9.19742
G1 X219.428 Y123.029 E9.21036
G1 X218.714 Y124.446 E9.26314
G1 X218.337 Y125.129 E9.28909
G1 X217.729 Y126.164 E9.32901
G1 X217.336 Y126.797 E9.35379
G1 X216.449 Y128.112 E9.40655
G1 X216.229 Y128.424 E9.41925
G1 X215.784 Y129.022 E9.44404
G1 X215.017 Y130.001 E9.4854
G1 X214.762 Y130.315 E9.49886
G1 X214.292 Y130.863 E9.52287
G1 X213.517 Y131.726 E9.56145
G1 X213.24 Y132.023 E9.57496
G1 X212.024 Y133.278 E9.63308
G1 X132.444 Y212.855 E13.37621
G1 X131.189 Y214.067 E13.43424
G1 X130.625 Y214.586 E13.45973
G1 X129.407 Y215.626 E13.513
G1 X128.837 Y216.086 E13.53736
G1 X127.561 Y217.037 E13.59029
G1 X127.229 Y217.273 E13.60384
G1 X126.636 Y217.672 E13.62761
G1 X125.605 Y218.333 E13.66834
G1 X125.273 Y218.538 E13.68132
G1 X124.612 Y218.923 E13.70676
G1 X123.574 Y219.494 E13.74617
G1 X123.212 Y219.684 E13.75976
G1 X122.53 Y220.021 E13.78507
G1 X121.445 Y220.525 E13.82486
G1 X120.755 Y220.825 E13.84988
G1 X119.242 Y221.413 E13.90387
G1 X118.477 Y221.685 E13.93087
G1 X118.112 Y221.805 E13.94365
G1 X117.022 Y222.141 E13.98159
G1 X116.277 Y222.351 E14.00734
G1 X114.73 Y222.723 E14.06026
G1 X114.37 Y222.802 E14.07251
G1 X113.62 Y222.947 E14.09792
G1 X112.409 Y223.149 E14.13876
G1 X111.636 Y223.258 E14.16472
G1 X111.243 Y223.304 E14.17788
G1 X110.076 Y223.418 E14.21688
G1 X109.343 Y223.472 E14.24133
G1 X107.748 Y223.526 E14.29441
G1 X107.356 Y223.531 E14.30744
G1 X105.814 Y223.522 E14.35873
G1 X44.907 Y222.137 E16.38503
G1 X43.091 Y222.063 E16.44548
G1 X42.287 Y222.01 E16.47228
G1 X40.71 Y221.848 E16.52501
G1 X39.966 Y221.75 E16.54997
G1 X39.563 Y221.686 E16.56354
G1 X38.316 Y221.465 E16.60566
G1 X37.572 Y221.314 E16.63091
G1 X35.953 Y220.918 E16.68635
G1 X35.249 Y220.724 E16.71063
G1 X34.874 Y220.61 E16.72367
G1 X33.625 Y220.205 E16.76734
G1 X32.993 Y219.983 E16.78962
G1 X32.62 Y219.841 E16.8029
G1 X31.388 Y219.346 E16.84706
G1 X31.025 Y219.192 E16.86017
G1 X30.387 Y218.903 E16.88347
G1 X29.18 Y218.318 E16.92808
G1 X28.532 Y217.983 E16.95234
G1 X28.177 Y217.788 E16.96581
G1 X27.066 Y217.15 E17.00842
G1 X26.468 Y216.787 E17.03169
G1 X25.045 Y215.843 E17.08849
G1 X24.505 Y215.464 E17.11043
G1 X24.173 Y215.216 E17.12421
G1 X22.818 Y214.16 E17.18135
G1 X22.288 Y213.713 E17.20441
G1 X21.289 Y212.825 E17.24887
G1 X20.772 Y212.341 E17.27242
G1 X20.497 Y212.069 E17.28529
G1 X19.574 Y211.125 E17.3292
G1 X19.101 Y210.619 E17.35224
G1 X18.82 Y210.3 E17.36638
G1 X17.981 Y209.313 E17.40946
G1 X17.54 Y208.769 E17.43275
G1 X17.298 Y208.454 E17.44597
G1 X16.52 Y207.402 E17.48948
G1 X16.278 Y207.061 E17.50339
G1 X15.873 Y206.459 E17.52752
G1 X15.2 Y205.404 E17.56914
G1 X14.817 Y204.769 E17.59381
G1 X14.615 Y204.414 E17.60739
G1 X14.011 Y203.304 E17.64942
G1 X13.829 Y202.955 E17.66252
G1 X13.49 Y202.26 E17.68823
G1 X12.963 Y201.109 E17.73034
G1 X12.679 Y200.447 E17.7543
G1 X12.072 Y198.857 E17.8109
G1 X11.937 Y198.48 E17.82422
G1 X11.729 Y197.843 E17.84651
G1 X11.34 Y196.549 E17.89145
G1 X11.233 Y196.168 E17.90461
G1 X11.062 Y195.493 E17.92777
G1 X10.778 Y194.238 E17.97057
G1 X10.625 Y193.465 E17.99678
G1 X10.561 Y193.092 E18.00937
G1 X10.366 Y191.825 E18.052
G1 X10.275 Y191.119 E18.07568
G1 X10.127 Y189.451 E18.13138
G1 X10.101 Y189.069 E18.14411
G1 X10.069 Y188.307 E18.16948
G1 X10.049 Y186.999 E18.21299
G1 X10.051 Y186.596 E18.22639
G1 X10.071 Y185.914 E18.24908
G1 X10.169 Y184.206 E18.30599
G1 X10.24 Y183.488 E18.32998
G1 X10.445 Y181.869 E18.38426
G1 X10.572 Y181.104 E18.41005
G1 X10.8 Y179.923 E18.45006
G1 X10.89 Y179.505 E18.46428
G1 X11.302 Y177.745 E18.5244
G1 X39.311 Y66.411 E22.34277
G1 X39.816 Y64.538 E22.40729
G1 X40.025 Y63.827 E22.43194
G1 X40.149 Y63.44 E22.44545
G1 X40.541 Y62.291 E22.48583
G1 X40.809 Y61.566 E22.51154
G1 X41.411 Y60.109 E22.56397
G1 X41.731 Y59.395 E22.59
G1 X42.442 Y57.958 E22.64332
G1 X42.616 Y57.624 E22.65585
G1 X43.008 Y56.914 E22.68282
G1 X43.58 Y55.939 E22.72042
G1 X43.976 Y55.301 E22.7454
G1 X44.184 Y54.985 E22.75798
G1 X45.109 Y53.636 E22.81238
G1 X45.56 Y53.029 E22.83753
G1 X46.301 Y52.084 E22.87748
G1 X46.807 Y51.472 E22.90389
G1 X47.839 Y50.314 E22.95548
G1 X48.361 Y49.762 E22.98075
G1 X48.628 Y49.493 E22.99335
G0 F6000 X48.907 Y49.78
G1 F1200 X50.08 Y48.649 E23.04755
G1 X50.623 Y48.164 E23.07176
G1 X51.825 Y47.152 E23.12402
G1 X52.431 Y46.68 E23.14957
G1 X53.389 Y45.972 E23.18919
G1 X53.994 Y45.548 E23.21376
G1 X54.307 Y45.34 E23.22626
G1 X55.334 Y44.683 E23.26681
G1 X55.651 Y44.488 E23.27919
G1 X56.314 Y44.102 E23.30471
G1 X57.667 Y43.367 E23.35592
G1 X58.341 Y43.033 E23.38094
G1 X59.477 Y42.506 E23.42259
G1 X60.088 Y42.24 E23.44476
G1 X60.454 Y42.091 E23.4579
G1 X61.612 Y41.646 E23.49916
G1 X62.363 Y41.38 E23.52566
G1 X62.709 Y41.267 E23.53777
G1 X64.132 Y40.835 E23.58723
G1 X65.81 Y40.383 E23.64503
G1 X177.22 Y12.357 E27.46599
G1 X179.087 Y11.922 E27.52975
G1 X179.855 Y11.762 E27.55584
G1 X181.476 Y11.489 E27.61051
G1 X182.158 Y11.394 E27.63341
G1 X182.541 Y11.351 E27.64623
G1 X184.214 Y11.199 E27.70211
G1 X184.951 Y11.161 E27.72665
G1 X186.226 Y11.129 E27.76907
G1 X186.614 Y11.127 E27.78198
G1 X187.296 Y11.14 E27.80466
G1 X188.62 Y11.197 E27.84874
G1 X189.016 Y11.221 E27.86194
G1 X189.692 Y11.281 E27.88451
G1 X190.981 Y11.427 E27.92765
G1 X191.683 Y11.525 E27.95123
G1 X192.047 Y11.585 E27.9635
G1 X193.36 Y11.826 E28.0079
G1 X193.745 Y11.904 E28.02097
G1 X194.451 Y12.067 E28.04506
G1 X195.67 Y12.38 E28.08692
G1 X196.374 Y12.58 E28.11127
G1 X196.737 Y12.693 E28.12391
G1 X197.928 Y13.088 E28.16565
G1 X198.588 Y13.325 E28.18897
G1 X200.18 Y13.969 E28.24609
G1 X200.801 Y14.242 E28.26865
G1 X202.344 Y14.997 E28.32578
G1 X202.979 Y15.33 E28.34963
G1 X204.423 Y16.164 E28.4051
G1 X204.952 Y16.488 E28.42573
G1 X205.277 Y16.7 E28.43863
G1 X206.389 Y17.453 E28.4833
G1 X206.712 Y17.68 E28.49643
G1 X207.29 Y18.111 E28.52041
G1 X208.301 Y18.903 E28.56313
G1 X208.594 Y19.141 E28.57568
G1 X209.119 Y19.591 E28.59868
G1 X210.102 Y20.478 E28.64272
G1 X210.605 Y20.956 E28.6658
G1 X210.866 Y21.217 E28.67807
G1 X212.027 Y22.429 E28.7339
G1 X212.519 Y22.984 E28.75856
G1 X213.347 Y23.969 E28.80136
G1 X213.789 Y24.523 E28.82494
G1 X214.79 Y25.888 E28.88123
G1 X215.165 Y26.429 E28.90313
G1 X215.381 Y26.757 E28.91619
G1 X216.073 Y27.858 E28.95944
G1 X216.269 Y28.183 E28.97207
G1 X216.627 Y28.813 E28.99617
G1 X217.247 Y29.972 E29.03988
G1 X217.559 Y30.592 E29.06297
G1 X217.726 Y30.947 E29.07602
G1 X218.26 Y32.138 E29.11943
G1 X218.539 Y32.803 E29.14342
G1 X218.676 Y33.154 E29.15595
G1 X219.121 Y34.359 E29.19867
G1 X219.249 Y34.727 E29.21163
G1 X219.453 Y35.367 E29.23397
G1 X219.822 Y36.626 E29.27761
G1 X219.995 Y37.277 E29.30001
G1 X220.083 Y37.647 E29.31266
G1 X220.447 Y39.34 E29.37026
G1 X220.567 Y40.029 E29.39352
G1 X220.754 Y41.292 E29.43598
G1 X220.839 Y41.989 E29.45934
G1 X220.973 Y43.627 E29.514
G1 X220.997 Y44.036 E29.52763
G1 X221.058 Y45.587 E29.57925
G1 X222.443 Y106.514 E31.60622
G1 X222.452 Y108.241 E31.66366
G1 X222.435 Y109.066 E31.6911
G1 X222.352 Y110.579 E31.7415
G1 X222.323 Y110.951 E31.75391
G1 X222.25 Y111.664 E31.77775
G1 X222.04 Y113.268 E31.83156
G1 X221.92 Y113.976 E31.85544
G1 X221.684 Y115.186 E31.89644
G1 X221.6 Y115.577 E31.90974
G1 X221.429 Y116.285 E31.93397
G1 X221.117 Y117.451 E31.97412
G1 X220.905 Y118.17 E31.99905
G1 X220.791 Y118.524 E32.01142
G1 X220.288 Y119.983 E32.06275
G1 X220.014 Y120.688 E32.0879
G1 X219.528 Y121.85 E32.1298
G1 X219.232 Y122.512 E32.15391
G1 X219.071 Y122.85 E32.16637
G1 X218.524 Y123.945 E32.20708
G1 X218.173 Y124.605 E32.23194
G1 X217.384 Y125.961 E32.28412
G1 X216.998 Y126.584 E32.3085
G1 X216.118 Y127.887 E32.36079
G1 X215.906 Y128.188 E32.37304
G1 X215.469 Y128.775 E32.39738
G1 X214.702 Y129.754 E32.43874
G1 X214.456 Y130.057 E32.45172
G1 X213.995 Y130.595 E32.47529
G1 X213.22 Y131.458 E32.51387
G1 X212.953 Y131.745 E32.5269
G1 X211.866 Y132.869 E32.57891
G1 X132.167 Y212.567 E36.32768
G1 X130.912 Y213.779 E36.38571
G1 X130.356 Y214.289 E36.41081
G1 X129.148 Y215.321 E36.46365
G1 X128.588 Y215.773 E36.48759
G1 X127.324 Y216.715 E36.54002
G1 X127.003 Y216.943 E36.55311
G1 X126.42 Y217.336 E36.5765
G1 X125.389 Y217.997 E36.61723
G1 X125.069 Y218.194 E36.62973
G1 X124.419 Y218.573 E36.65476
G1 X123.381 Y219.144 E36.69416
G1 X123.033 Y219.327 E36.70724
G1 X122.362 Y219.658 E36.73212
G1 X120.946 Y220.309 E36.78396
G1 X120.273 Y220.588 E36.80819
G1 X119.099 Y221.04 E36.85003
G1 X118.346 Y221.308 E36.87661
G1 X116.905 Y221.759 E36.92683
G1 X116.171 Y221.965 E36.95219
G1 X114.638 Y222.334 E37.00463
G1 X114.291 Y222.41 E37.01645
G1 X113.554 Y222.553 E37.04142
G1 X112.343 Y222.755 E37.08225
G1 X111.583 Y222.862 E37.10778
G1 X111.205 Y222.906 E37.12044
G1 X110.038 Y223.02 E37.15944
G1 X109.317 Y223.072 E37.18348
G1 X108.942 Y223.09 E37.19597
G1 X107.358 Y223.131 E37.24867
G1 X105.816 Y223.122 E37.29996
G1 X44.923 Y221.737 E39.32579
G1 X43.107 Y221.663 E39.38624
G1 X42.316 Y221.611 E39.41261
G1 X40.752 Y221.45 E39.4649
G1 X40.021 Y221.354 E39.48942
G1 X39.633 Y221.292 E39.50249
G1 X38.386 Y221.071 E39.54461
G1 X37.655 Y220.922 E39.56943
G1 X37.297 Y220.84 E39.58164
G1 X36.05 Y220.53 E39.62438
G1 X35.359 Y220.339 E39.64822
G1 X34.997 Y220.229 E39.66081
G1 X33.748 Y219.824 E39.70448
G1 X33.128 Y219.607 E39.72633
G1 X32.769 Y219.47 E39.73911
G1 X31.537 Y218.975 E39.78327
G1 X31.187 Y218.827 E39.79591
G1 X30.562 Y218.543 E39.81874
G1 X29.355 Y217.958 E39.86335
G1 X28.718 Y217.629 E39.8872
G1 X28.376 Y217.441 E39.90018
G1 X27.265 Y216.803 E39.94279
G1 X26.679 Y216.447 E39.96559
G1 X25.267 Y215.51 E40.02196
G1 X24.738 Y215.138 E40.04347
G1 X24.417 Y214.9 E40.05676
G1 X23.073 Y213.853 E40.11342
G1 X22.554 Y213.414 E40.13603
G1 X21.555 Y212.526 E40.18049
G1 X21.048 Y212.052 E40.20357
G1 X19.86 Y210.846 E40.25988
G1 X19.396 Y210.348 E40.28251
G1 X19.125 Y210.041 E40.29613
G1 X18.286 Y209.054 E40.33922
G1 X17.853 Y208.52 E40.36209
G1 X17.619 Y208.216 E40.37485
G1 X16.841 Y207.164 E40.41836
G1 X16.608 Y206.836 E40.43175
G1 X16.21 Y206.244 E40.45547
G1 X15.537 Y205.189 E40.49709
G1 X15.161 Y204.565 E40.52132
G1 X14.966 Y204.222 E40.53445
G1 X14.362 Y203.112 E40.57648
G1 X14.187 Y202.776 E40.58908
G1 X13.853 Y202.094 E40.61434
G1 X13.326 Y200.943 E40.65644
G1 X13.048 Y200.292 E40.67998
G1 X12.446 Y198.716 E40.7361
G1 X12.316 Y198.353 E40.74892
G1 X12.112 Y197.728 E40.77079
G1 X11.723 Y196.434 E40.81573
G1 X11.62 Y196.067 E40.82841
G1 X11.452 Y195.405 E40.85112
G1 X11.168 Y194.15 E40.89392
G1 X11.018 Y193.39 E40.91969
G1 X10.956 Y193.031 E40.9318
G1 X10.761 Y191.764 E40.97444
G1 X10.672 Y191.072 E40.99764
G1 X10.525 Y189.417 E41.05291
G1 X10.5 Y189.049 E41.06517
G1 X10.469 Y188.301 E41.09007
G1 X10.449 Y186.993 E41.13358
G1 X10.45 Y186.604 E41.14652
G1 X10.47 Y185.936 E41.16875
G1 X10.541 Y184.614 E41.21278
G1 X10.599 Y183.893 E41.23684
G1 X10.792 Y182.28 E41.29087
G1 X10.902 Y181.543 E41.31566
G1 X10.965 Y181.18 E41.32791
G1 X11.193 Y179.999 E41.36792
G1 X11.279 Y179.596 E41.38162
G1 X11.69 Y177.843 E41.44151
G1 X39.746 Y66.329 E45.26606
G1 X40.202 Y64.642 E45.32419
G1 X40.408 Y63.942 E45.34846
G1 X40.528 Y63.569 E45.36149
G1 X40.92 Y62.42 E45.40187
G1 X41.183 Y61.707 E45.42714
G1 X41.319 Y61.366 E45.43935
G1 X41.921 Y59.94 E45.49084
G1 X42.25 Y59.236 E45.51668
G1 X42.967 Y57.815 E45.56962
G1 X43.353 Y57.116 E45.59618
G1 X43.925 Y56.141 E45.63378
G1 X44.314 Y55.515 E45.65829
G1 X45.228 Y54.161 E45.71262
G1 X45.657 Y53.564 E45.73707
G1 X46.616 Y52.331 E45.78903
G1 X46.841 Y52.054 E45.8009
G1 X47.344 Y51.464 E45.82669
G1 X48.137 Y50.581 E45.86616
G1 X48.65 Y50.039 E45.89098
G1 X48.907 Y49.78 E45.90312
G0 F6000 X49.186 Y50.067
G1 F1200 X50.349 Y48.945 E45.95686
G1 X50.882 Y48.469 E45.98063
G1 X51.801 Y47.689 E46.02072
G1 X52.074 Y47.466 E46.03245
G1 X52.669 Y47.002 E46.05754
G1 X53.627 Y46.294 E46.09716
G1 X54.221 Y45.877 E46.1213
G1 X55.549 Y45.02 E46.17387
G1 X55.855 Y44.832 E46.18582
