;FLAVOR:Marlin
;TIME:9940
;Filament used: 6.56093m
;Layer height: 0.16
;MINX:55.5
;MINY:61.822
;MINZ:0.2
;MAXX:164.5
;MAXY:158.178
;MAXZ:14.72
;Generated with Cura_SteamEngine 4.4.1
M140 S60
M105
M190 S60
M104 S200
M105
M109 S200
M82 ;absolute extrusion mode
M201 X500.00 Y500.00 Z100.00 E5000.00 ;Setup machine max acceleration
M203 X500.00 Y500.00 Z10.00 E50.00 ;Setup machine max feedrate
M204 P500.00 R1000.00 T500.00 ;Setup Print/Retract/Travel acceleration
M205 X8.00 Y8.00 Z0.40 E5.00 ;Setup Jerk
M220 S100 ;Reset Feedrate
M221 S100 ;Reset Flowrate

G28 ;Home

G92 E0 ;Reset Extruder
G1 Z2.0 F3000 ;Move Z Axis up
G1 X10.1 Y20 Z0.28 F5000.0 ;Move to start position
G1 X10.1 Y200.0 Z0.28 F1500.0 E15 ;Draw the first line
G1 X10.4 Y200.0 Z0.28 F5000.0 ;Move to side a little
G1 X10.4 Y20 Z0.28 F1500.0 E30 ;Draw the second line
G92 E0 ;Reset Extruder
G1 Z2.0 F3000 ;Move Z Axis up

G92 E0
G92 E0
G1 F1500 E-6.5
;LAYER_COUNT:92
;LAYER:0
M107
G0 F6000 X59.397 Y64.454 Z0.2
;TYPE:SKIRT
G1 F1500 E0
G1 F1200 X60.138 Y63.879 E0.0312
G1 X60.925 Y63.368 E0.06241
G1 X61.752 Y62.927 E0.09358
G1 X62.615 Y62.558 E0.12479
G1 X63.505 Y62.263 E0.15598
G1 X64.417 Y62.046 E0.18716
G1 X65.345 Y61.907 E0.21837
G1 X66.26 Y61.848 E0.24887
G1 X67.272 Y61.825 E0.28253
G1 X67.522 Y61.822 E0.29085
G1 X151.247 Y61.823 E3.07555
G1 X152.816 Y61.822 E3.12774
G1 X152.972 Y61.823 E3.13293
G1 X153.636 Y61.832 E3.15502
G1 X154.572 Y61.885 E3.1862
G1 X155.501 Y62.017 E3.21741
G1 X156.415 Y62.228 E3.2486
G1 X157.307 Y62.516 E3.27978
G1 X158.172 Y62.879 E3.31098
G1 X159.003 Y63.314 E3.34218
G1 X159.794 Y63.818 E3.37337
G1 X160.538 Y64.388 E3.40455
G1 X161.232 Y65.02 E3.43577
G1 X161.869 Y65.708 E3.46695
G1 X162.445 Y66.448 E3.49814
G1 X162.957 Y67.234 E3.52934
G1 X163.399 Y68.061 E3.56053
G1 X163.769 Y68.923 E3.59173
G1 X164.065 Y69.813 E3.62292
G1 X164.283 Y70.725 E3.65411
G1 X164.424 Y71.652 E3.6853
G1 X164.477 Y72.365 E3.70908
G1 X164.489 Y72.648 E3.7185
G1 X164.499 Y73.113 E3.73397
G1 X164.5 Y85.442 E4.14403
G1 X164.499 Y85.601 E4.14932
G1 X164.489 Y86.299 E4.17254
G1 X164.435 Y87.235 E4.20372
G1 X164.21 Y88.607 E4.24997
G1 X163.61 Y91.216 E4.33901
G1 X163.102 Y93.734 E4.42444
G1 X162.689 Y96.149 E4.50593
G1 X162.331 Y98.664 E4.59043
G1 X162.043 Y101.177 E4.67455
G1 X161.832 Y103.664 E4.75757
G1 X161.687 Y106.197 E4.84196
G1 X161.616 Y108.686 E4.92477
G1 X161.614 Y111.21 E5.00872
G1 X161.685 Y113.73 E5.09257
G1 X161.826 Y116.248 E5.17645
G1 X162.041 Y118.777 E5.26087
G1 X162.319 Y121.234 E5.34311
G1 X162.679 Y123.771 E5.42834
G1 X163.1 Y126.234 E5.51145
G1 X163.599 Y128.722 E5.59584
G1 X164.021 Y130.591 E5.65957
G1 X164.191 Y131.306 E5.68402
G1 X164.369 Y132.226 E5.71518
G1 X164.487 Y133.619 E5.76168
G1 X164.498 Y134.143 E5.77911
G1 X164.5 Y134.374 E5.7868
G1 X164.5 Y146.442 E6.18818
G1 X164.499 Y146.594 E6.19324
G1 X164.489 Y147.32 E6.21738
G1 X164.436 Y148.256 E6.24857
G1 X164.304 Y149.184 E6.27974
G1 X164.093 Y150.098 E6.31094
G1 X163.804 Y150.991 E6.34216
G1 X163.441 Y151.855 E6.37333
G1 X163.006 Y152.686 E6.40453
G1 X162.501 Y153.477 E6.43574
G1 X161.931 Y154.221 E6.46691
G1 X161.3 Y154.915 E6.49811
G1 X160.611 Y155.552 E6.52932
G1 X159.871 Y156.128 E6.56051
G1 X159.085 Y156.639 E6.59169
G1 X158.258 Y157.081 E6.62288
G1 X157.396 Y157.451 E6.65408
G1 X156.506 Y157.747 E6.68527
G1 X155.594 Y157.965 E6.71646
G1 X154.666 Y158.105 E6.74768
G1 X153.796 Y158.164 E6.77668
G1 X153.473 Y158.173 E6.78743
G1 X153.17 Y158.177 E6.79751
G1 X150.023 Y158.178 E6.90217
G1 X150.02 Y158.178 E6.90227
G1 X67.207 Y158.177 E9.65665
G1 X67.049 Y158.176 E9.6619
G1 X66.352 Y158.166 E9.68509
G1 X65.416 Y158.112 E9.71627
G1 X64.487 Y157.979 E9.74748
G1 X63.574 Y157.768 E9.77865
G1 X62.681 Y157.479 E9.80987
G1 X61.817 Y157.116 E9.84104
G1 X60.987 Y156.68 E9.87222
G1 X60.196 Y156.175 E9.90343
G1 X59.452 Y155.604 E9.93463
G1 X58.759 Y154.972 E9.96582
G1 X58.122 Y154.283 E9.99703
G1 X57.546 Y153.543 E10.02822
G1 X57.036 Y152.756 E10.05941
G1 X56.594 Y151.929 E10.0906
G1 X56.225 Y151.067 E10.12179
G1 X55.93 Y150.177 E10.15297
G1 X55.712 Y149.265 E10.18416
G1 X55.572 Y148.337 E10.21538
G1 X55.515 Y147.498 E10.24335
G1 X55.505 Y147.166 E10.25439
G1 X55.5 Y146.835 E10.2654
G1 X55.5 Y134.557 E10.67377
G1 X55.501 Y134.401 E10.67896
G1 X55.511 Y133.696 E10.70241
G1 X55.564 Y132.76 E10.73359
G1 X55.791 Y131.381 E10.78007
G1 X56.392 Y128.776 E10.86899
G1 X56.898 Y126.266 E10.95416
G1 X57.311 Y123.851 E11.03565
G1 X57.669 Y121.336 E11.12014
G1 X57.957 Y118.823 E11.20427
G1 X58.168 Y116.336 E11.28728
G1 X58.313 Y113.803 E11.37167
G1 X58.384 Y111.314 E11.45449
G1 X58.386 Y108.79 E11.53844
G1 X58.315 Y106.27 E11.62228
G1 X58.173 Y103.748 E11.7063
G1 X57.96 Y101.225 E11.79051
G1 X57.681 Y98.762 E11.87296
G1 X57.322 Y96.239 E11.95772
G1 X56.898 Y93.753 E12.0416
G1 X56.405 Y91.294 E12.12501
G1 X55.963 Y89.342 E12.19158
G1 X55.807 Y88.682 E12.21413
G1 X55.63 Y87.762 E12.24529
G1 X55.531 Y86.829 E12.2765
G1 X55.512 Y86.356 E12.29224
G1 X55.502 Y85.838 E12.30948
G1 X55.5 Y85.626 E12.31653
G1 X55.5 Y73.521 E12.71914
G1 X55.501 Y73.358 E12.72456
G1 X55.511 Y72.682 E12.74705
G1 X55.565 Y71.746 E12.77823
G1 X55.698 Y70.818 E12.80941
G1 X55.91 Y69.904 E12.84062
G1 X56.199 Y69.012 E12.87181
G1 X56.563 Y68.147 E12.90302
G1 X57 Y67.317 E12.93422
G1 X57.505 Y66.527 E12.9654
G1 X58.076 Y65.783 E12.9966
G1 X58.708 Y65.09 E13.02779
G1 X59.397 Y64.454 E13.05898
G0 F6000 X59.786 Y64.651
G1 F1200 X60.522 Y64.098 E13.0896
G1 X61.304 Y63.612 E13.12022
G1 X62.124 Y63.195 E13.15082
G1 X62.978 Y62.851 E13.18144
G1 X63.859 Y62.582 E13.21208
G1 X64.759 Y62.391 E13.24268
G1 X65.673 Y62.278 E13.27331
G1 X66.269 Y62.248 E13.29316
G1 X67.281 Y62.225 E13.32683
G1 X67.522 Y62.222 E13.33484
G1 X151.247 Y62.223 E16.11955
G1 X152.816 Y62.222 E16.17173
G1 X152.967 Y62.223 E16.17676
G1 X153.631 Y62.232 E16.19884
G1 X154.55 Y62.284 E16.22946
G1 X155.461 Y62.416 E16.26007
G1 X156.357 Y62.627 E16.29069
G1 X157.232 Y62.915 E16.32133
G1 X158.078 Y63.277 E16.35193
G1 X158.89 Y63.711 E16.38256
G1 X159.661 Y64.215 E16.41319
G1 X160.385 Y64.783 E16.4438
G1 X161.058 Y65.412 E16.47444
G1 X161.673 Y66.097 E16.50506
G1 X162.226 Y66.832 E16.53565
G1 X162.714 Y67.613 E16.56628
G1 X163.132 Y68.434 E16.59692
G1 X163.477 Y69.287 E16.62753
G1 X163.747 Y70.167 E16.65814
G1 X163.939 Y71.068 E16.68878
G1 X164.077 Y72.382 E16.73273
G1 X164.089 Y72.665 E16.74215
G1 X164.099 Y73.113 E16.75705
G1 X164.1 Y85.442 E17.16712
G1 X164.099 Y85.595 E17.1722
G1 X164.089 Y86.293 E17.19542
G1 X164.036 Y87.212 E17.22604
G1 X163.82 Y88.517 E17.27003
G1 X163.222 Y91.118 E17.3588
G1 X162.709 Y93.659 E17.44502
G1 X162.292 Y96.096 E17.52725
G1 X161.936 Y98.594 E17.61118
G1 X161.646 Y101.132 E17.69614
G1 X161.432 Y103.647 E17.78009
G1 X161.289 Y106.162 E17.86388
G1 X161.216 Y108.71 E17.94866
G1 X161.214 Y111.221 E18.03217
G1 X161.285 Y113.765 E18.11682
G1 X161.426 Y116.269 E18.20024
G1 X161.64 Y118.785 E18.28422
G1 X161.924 Y121.298 E18.36833
G1 X162.283 Y123.823 E18.45316
G1 X162.708 Y126.315 E18.53724
G1 X163.207 Y128.802 E18.62161
G1 X163.632 Y130.683 E18.68575
G1 X163.802 Y131.398 E18.71019
G1 X163.975 Y132.302 E18.7408
G1 X164.087 Y133.628 E18.78506
G1 X164.098 Y134.152 E18.8025
G1 X164.1 Y134.374 E18.80988
G1 X164.1 Y146.442 E19.21126
G1 X164.099 Y146.588 E19.21612
G1 X164.089 Y147.314 E19.24027
G1 X164.036 Y148.233 E19.27089
G1 X163.904 Y149.144 E19.3015
G1 X163.693 Y150.04 E19.33212
G1 X163.406 Y150.915 E19.36275
G1 X163.043 Y151.761 E19.39337
G1 X162.609 Y152.573 E19.42399
G1 X162.105 Y153.344 E19.45463
G1 X161.537 Y154.068 E19.48523
G1 X160.908 Y154.74 E19.51585
G1 X160.223 Y155.355 E19.54646
G1 X159.487 Y155.909 E19.5771
G1 X158.706 Y156.396 E19.60772
G1 X157.885 Y156.814 E19.63836
G1 X157.032 Y157.159 E19.66896
G1 X156.152 Y157.428 E19.69957
G1 X155.251 Y157.621 E19.73021
G1 X154.338 Y157.734 E19.76081
G1 X153.785 Y157.764 E19.77923
G1 X153.462 Y157.773 E19.78998
G1 X153.17 Y157.777 E19.79969
G1 X150.023 Y157.778 E19.90436
G1 X150.02 Y157.778 E19.90446
G1 X67.207 Y157.777 E22.65883
G1 X67.055 Y157.776 E22.66389
G1 X66.358 Y157.766 E22.68707
G1 X65.439 Y157.713 E22.71769
G1 X64.528 Y157.58 E22.74831
G1 X63.632 Y157.369 E22.77893
G1 X62.757 Y157.081 E22.80957
G1 X61.911 Y156.717 E22.8402
G1 X61.1 Y156.282 E22.87081
G1 X60.329 Y155.779 E22.90143
G1 X59.605 Y155.21 E22.93205
G1 X58.934 Y154.58 E22.96267
G1 X58.319 Y153.895 E22.99328
G1 X57.766 Y153.159 E23.0239
G1 X57.279 Y152.377 E23.05454
G1 X56.862 Y151.557 E23.08514
G1 X56.517 Y150.703 E23.11578
G1 X56.248 Y149.823 E23.14638
G1 X56.056 Y148.922 E23.17702
G1 X55.943 Y148.008 E23.20765
G1 X55.915 Y147.486 E23.22504
G1 X55.905 Y147.154 E23.23609
G1 X55.9 Y146.835 E23.2467
G1 X55.9 Y134.557 E23.65507
G1 X55.901 Y134.407 E23.66006
G1 X55.911 Y133.702 E23.68351
G1 X55.964 Y132.783 E23.71412
G1 X56.181 Y131.47 E23.75839
G1 X56.782 Y128.865 E23.84731
G1 X57.291 Y126.341 E23.93294
G1 X57.708 Y123.904 E24.01518
G1 X58.064 Y121.406 E24.0991
G1 X58.354 Y118.868 E24.18406
G1 X58.568 Y116.353 E24.26802
G1 X58.711 Y113.838 E24.3518
G1 X58.784 Y111.29 E24.43658
G1 X58.786 Y108.779 E24.5201
G1 X58.715 Y106.235 E24.60474
G1 X58.574 Y103.728 E24.68826
G1 X58.361 Y101.217 E24.77208
G1 X58.076 Y98.697 E24.85643
G1 X57.719 Y96.187 E24.94075
G1 X57.289 Y93.673 E25.02558
G1 X56.797 Y91.213 E25.10902
G1 X56.355 Y89.258 E25.17568
G1 X56.196 Y88.59 E25.19852
G1 X56.023 Y87.686 E25.22913
G1 X55.912 Y86.349 E25.27376
G1 X55.902 Y85.831 E25.29099
G1 X55.9 Y85.626 E25.29781
G1 X55.9 Y73.521 E25.70042
G1 X55.901 Y73.364 E25.70564
G1 X55.911 Y72.688 E25.72813
G1 X55.965 Y71.769 E25.75875
G1 X56.098 Y70.858 E25.78937
G1 X56.31 Y69.962 E25.81999
G1 X56.598 Y69.088 E25.8506
G1 X56.962 Y68.242 E25.88123
G1 X57.397 Y67.431 E25.91184
G1 X57.901 Y66.661 E25.94245
G1 X58.47 Y65.937 E25.97308
G1 X59.1 Y65.265 E26.00371
G1 X59.786 Y64.651 E26.03433
G0 F6000 X60.173 Y64.852
G1 F1200 X60.905 Y64.323 E26.06437
G1 X61.681 Y63.861 E26.09441
G1 X62.495 Y63.469 E26.12446
G1 X63.34 Y63.15 E26.1545
G1 X64.21 Y62.908 E26.18454
G1 X65.098 Y62.743 E26.21458
G1 X66.278 Y62.648 E26.25395
G1 X67.29 Y62.625 E26.28762
G1 X67.522 Y62.622 E26.29534
G1 X151.247 Y62.623 E29.08004
G1 X152.816 Y62.622 E29.13223
G1 X152.961 Y62.623 E29.13705
G1 X153.625 Y62.632 E29.15914
G1 X154.527 Y62.684 E29.18919
G1 X155.42 Y62.816 E29.21921
G1 X156.299 Y63.026 E29.24927
G1 X157.155 Y63.313 E29.2793
G1 X157.982 Y63.675 E29.30932
G1 X158.775 Y64.109 E29.33939
G1 X159.525 Y64.61 E29.36939
G1 X160.229 Y65.177 E29.39945
G1 X160.879 Y65.803 E29.42947
G1 X161.472 Y66.485 E29.45953
G1 X162.002 Y67.216 E29.48956
G1 X162.465 Y67.991 E29.51958
G1 X162.858 Y68.804 E29.54962
G1 X163.178 Y69.649 E29.57967
G1 X163.421 Y70.518 E29.60968
G1 X163.587 Y71.406 E29.63973
G1 X163.678 Y72.399 E29.6729
G1 X163.69 Y72.682 E29.68232
G1 X163.699 Y73.113 E29.69666
G1 X163.7 Y85.442 E30.10672
G1 X163.699 Y85.589 E30.11161
G1 X163.689 Y86.287 E30.13483
G1 X163.636 Y87.189 E30.16488
G1 X163.43 Y88.427 E30.20662
G1 X162.834 Y91.02 E30.29511
G1 X162.318 Y93.578 E30.38191
G1 X161.896 Y96.044 E30.46512
G1 X161.537 Y98.564 E30.54978
G1 X161.248 Y101.089 E30.63431
G1 X161.032 Y103.624 E30.71893
G1 X160.889 Y106.13 E30.80242
G1 X160.816 Y108.698 E30.88786
G1 X160.814 Y111.232 E30.97214
G1 X160.885 Y113.762 E31.05632
G1 X161.027 Y116.292 E31.14061
G1 X161.245 Y118.863 E31.22642
G1 X161.529 Y121.367 E31.31024
G1 X161.879 Y123.835 E31.39315
G1 X162.317 Y126.395 E31.47953
G1 X162.817 Y128.892 E31.56423
G1 X163.26 Y130.854 E31.63113
G1 X163.412 Y131.491 E31.65291
G1 X163.582 Y132.378 E31.68295
G1 X163.687 Y133.636 E31.72494
G1 X163.698 Y134.16 E31.74237
G1 X163.7 Y134.374 E31.74949
G1 X163.7 Y146.442 E32.15087
G1 X163.699 Y146.582 E32.15553
G1 X163.689 Y147.308 E32.17968
G1 X163.637 Y148.21 E32.20973
G1 X163.505 Y149.103 E32.23975
G1 X163.294 Y149.982 E32.26982
G1 X163.007 Y150.838 E32.29985
G1 X162.645 Y151.665 E32.32987
G1 X162.211 Y152.457 E32.35991
G1 X161.709 Y153.208 E32.38995
G1 X161.143 Y153.912 E32.42
G1 X160.516 Y154.562 E32.45004
G1 X159.835 Y155.155 E32.48007
G1 X159.103 Y155.684 E32.51011
G1 X158.328 Y156.148 E32.54015
G1 X157.515 Y156.54 E32.57017
G1 X156.67 Y156.86 E32.60022
G1 X155.8 Y157.103 E32.63027
G1 X154.913 Y157.268 E32.66028
G1 X153.774 Y157.364 E32.69829
G1 X153.451 Y157.373 E32.70904
G1 X153.17 Y157.377 E32.71839
G1 X150.023 Y157.378 E32.82306
G1 X150.02 Y157.378 E32.82316
G1 X67.207 Y157.377 E35.57753
G1 X67.061 Y157.376 E35.58238
G1 X66.364 Y157.366 E35.60557
G1 X65.462 Y157.313 E35.63562
G1 X64.569 Y157.181 E35.66565
G1 X63.691 Y156.97 E35.69568
G1 X62.835 Y156.682 E35.72572
G1 X62.007 Y156.319 E35.75579
G1 X61.216 Y155.885 E35.7858
G1 X60.465 Y155.383 E35.81584
G1 X59.762 Y154.816 E35.84588
G1 X59.112 Y154.189 E35.87592
G1 X58.52 Y153.507 E35.90596
G1 X57.99 Y152.776 E35.93599
G1 X57.528 Y152 E35.96603
G1 X57.135 Y151.187 E35.99606
G1 X56.817 Y150.342 E36.02609
G1 X56.574 Y149.472 E36.05613
G1 X56.409 Y148.584 E36.08617
G1 X56.315 Y147.474 E36.12322
G1 X56.305 Y147.142 E36.13427
G1 X56.3 Y146.835 E36.14448
G1 X56.3 Y134.557 E36.55285
G1 X56.301 Y134.412 E36.55767
G1 X56.311 Y133.707 E36.58112
G1 X56.364 Y132.806 E36.61114
G1 X56.571 Y131.56 E36.65315
G1 X57.17 Y128.963 E36.7418
G1 X57.682 Y126.422 E36.82801
G1 X58.104 Y123.956 E36.91122
G1 X58.463 Y121.436 E36.99588
G1 X58.752 Y118.911 E37.08041
G1 X58.968 Y116.376 E37.16503
G1 X59.111 Y113.87 E37.24852
G1 X59.184 Y111.302 E37.33397
G1 X59.186 Y108.768 E37.41825
G1 X59.115 Y106.238 E37.50243
G1 X58.973 Y103.708 E37.58671
G1 X58.755 Y101.137 E37.67253
G1 X58.475 Y98.667 E37.75521
G1 X58.11 Y96.094 E37.84164
G1 X57.69 Y93.638 E37.92451
G1 X57.185 Y91.116 E38.01006
G1 X56.756 Y89.219 E38.07475
G1 X56.585 Y88.498 E38.0994
G1 X56.416 Y87.611 E38.12943
G1 X56.312 Y86.341 E38.17181
G1 X56.302 Y85.823 E38.18904
G1 X56.3 Y85.626 E38.19559
G1 X56.3 Y73.521 E38.59821
G1 X56.301 Y73.37 E38.60323
G1 X56.311 Y72.694 E38.62572
G1 X56.364 Y71.793 E38.65574
G1 X56.497 Y70.899 E38.6858
G1 X56.709 Y70.021 E38.71584
G1 X56.997 Y69.165 E38.74588
G1 X57.36 Y68.338 E38.77592
G1 X57.794 Y67.547 E38.80593
G1 X58.297 Y66.796 E38.83599
G1 X58.864 Y66.094 E38.866
G1 X59.491 Y65.444 E38.89604
G1 X60.173 Y64.852 E38.92608
G1 F1500 E32.42608
;MESH:Motor Holder Platform.stl
G0 F6000 X67.178 Y72.158
G0 X67.18 Y73.242
G0 X152.318 Y74.004
G0 X152.304 Y81.542
G0 X148.538 Y80.84
G0 X147.309 Y84.522
G0 X149.529 Y85.68
;TYPE:WALL-INNER
G1 F1500 E38.92608
G1 F1200 X149.907 Y85.726 E38.93874
G1 X150.284 Y85.709 E38.9513
G1 X150.655 Y85.635 E38.96388
G1 X151.008 Y85.499 E38.97646
G1 X151.336 Y85.31 E38.98905
G1 X151.629 Y85.072 E39.00161
G1 X151.88 Y84.788 E39.01421
G1 X152.084 Y84.467 E39.02686
G1 X152.231 Y84.118 E39.03946
G1 X152.321 Y83.753 E39.05196
G1 X152.352 Y83.376 E39.06454
G1 X152.323 Y83.011 E39.07672
G1 X152.232 Y82.632 E39.08968
G1 X152.083 Y82.282 E39.10234
G1 X151.88 Y81.962 E39.11494
G1 X151.629 Y81.678 E39.12755
G1 X151.336 Y81.44 E39.1401
G1 X151.008 Y81.251 E39.15269
G1 X150.655 Y81.115 E39.16528
G1 X150.284 Y81.041 E39.17786
G1 X149.907 Y81.024 E39.19041
G1 X149.529 Y81.07 E39.20307
G1 X149.166 Y81.176 E39.21565
G1 X148.824 Y81.337 E39.22822
G1 X148.512 Y81.553 E39.24085
G1 X148.24 Y81.816 E39.25343
G1 X148.012 Y82.118 E39.26602
G1 X147.836 Y82.453 E39.2786
G1 X147.716 Y82.812 E39.29119
G1 X147.656 Y83.186 E39.30379
G1 X147.656 Y83.564 E39.31636
G1 X147.716 Y83.938 E39.32896
G1 X147.836 Y84.297 E39.34155
G1 X148.012 Y84.632 E39.35414
G1 X148.24 Y84.934 E39.36672
G1 X148.512 Y85.197 E39.37931
G1 X148.824 Y85.413 E39.39193
G1 X149.166 Y85.574 E39.4045
G1 X149.529 Y85.68 E39.41708
G0 F6000 X149.61 Y85.287
;TYPE:WALL-OUTER
G1 F1200 X149.922 Y85.325 E39.42753
G1 X150.235 Y85.311 E39.43795
G1 X150.543 Y85.249 E39.4484
G1 X150.836 Y85.137 E39.45884
G1 X151.108 Y84.98 E39.46928
G1 X151.351 Y84.782 E39.47971
G1 X151.559 Y84.547 E39.49014
G1 X151.728 Y84.281 E39.50063
G1 X151.85 Y83.992 E39.51106
G1 X151.925 Y83.688 E39.52147
G1 X151.951 Y83.375 E39.53192
G1 X151.927 Y83.074 E39.54196
G1 X151.851 Y82.758 E39.55277
G1 X151.728 Y82.469 E39.56322
