;FLAVOR:Marlin
;TIME:5068
;Filament used: 2.9872m
;Layer height: 0.16
;MINX:71.15
;MINY:67.85
;MINZ:0.2
;MAXX:148.85
;MAXY:152.15
;MAXZ:8.4
;Generated with Cura_SteamEngine 4.4.1
M140 S60
M105
M190 S60
M104 S200
M105
M109 S200
M82 ;absolute extrusion mode
M201 X500.00 Y500.00 Z100.00 E5000.00 ;Setup machine max acceleration
M203 X500.00 Y500.00 Z10.00 E50.00 ;Setup machine max feedrate
M204 P500.00 R1000.00 T500.00 ;Setup Print/Retract/Travel acceleration
M205 X8.00 Y8.00 Z0.40 E5.00 ;Setup Jerk
M220 S100 ;Reset Feedrate
M221 S100 ;Reset Flowrate

G28 ;Home

G92 E0 ;Reset Extruder
G1 Z2.0 F3000 ;Move Z Axis up
G1 X10.1 Y20 Z0.28 F5000.0 ;Move to start position
G1 X10.1 Y200.0 Z0.28 F1500.0 E15 ;Draw the first line
G1 X10.4 Y200.0 Z0.28 F5000.0 ;Move to side a little
G1 X10.4 Y20 Z0.28 F1500.0 E30 ;Draw the second line
G92 E0 ;Reset Extruder
G1 Z2.0 F3000 ;Move Z Axis up

G92 E0
G92 E0
G1 F1500 E-6.5
;LAYER_COUNT:43
;LAYER:0
M107
G0 F6000 X75.566 Y72.83 Z0.2
;TYPE:SKIRT
G1 F1500 E0
G1 F1200 X76.166 Y72.232 E0.02818
G1 X76.427 Y71.991 E0.03999
G1 X77.047 Y71.46 E0.06714
G1 X77.368 Y71.205 E0.08078
G1 X78.082 Y70.683 E0.11019
G1 X78.407 Y70.465 E0.12321
G1 X79.16 Y70.003 E0.15259
G1 X79.526 Y69.798 E0.16655
G1 X80.36 Y69.376 E0.19763
G1 X80.713 Y69.216 E0.21052
G1 X81.476 Y68.904 E0.23794
G1 X81.837 Y68.772 E0.25073
G1 X82.633 Y68.515 E0.27855
G1 X83.02 Y68.406 E0.29192
G1 X83.914 Y68.194 E0.32248
G1 X84.302 Y68.119 E0.33562
G1 X85.092 Y67.996 E0.36221
G1 X85.454 Y67.953 E0.37434
G1 X86.542 Y67.878 E0.41061
G1 X87.906 Y67.852 E0.45599
G1 X88.116 Y67.85 E0.46297
G1 X131.884 Y67.85 E1.9187
G1 X132.093 Y67.852 E1.92565
G1 X133.459 Y67.878 E1.97109
G1 X134.569 Y67.955 E2.0081
G1 X134.95 Y68.001 E2.02087
G1 X135.729 Y68.124 E2.0471
G1 X136.079 Y68.192 E2.05896
G1 X136.931 Y68.393 E2.08807
G1 X137.362 Y68.513 E2.10295
G1 X138.281 Y68.813 E2.13511
G1 X138.643 Y68.949 E2.14797
G1 X139.409 Y69.27 E2.17559
G1 X139.777 Y69.441 E2.18909
G1 X140.577 Y69.854 E2.21903
G1 X140.899 Y70.037 E2.23135
G1 X141.572 Y70.452 E2.25765
G1 X141.888 Y70.663 E2.27029
G1 X142.588 Y71.171 E2.29905
G1 X142.904 Y71.42 E2.31243
G1 X143.561 Y71.98 E2.34115
G1 X143.85 Y72.247 E2.35423
G1 X144.465 Y72.863 E2.38318
G1 X144.707 Y73.125 E2.39505
G1 X145.25 Y73.76 E2.42284
G1 X145.505 Y74.082 E2.4365
G1 X146.003 Y74.762 E2.46453
G1 X146.214 Y75.075 E2.47709
G1 X146.688 Y75.845 E2.50716
G1 X146.896 Y76.216 E2.52131
G1 X147.306 Y77.024 E2.55144
G1 X147.47 Y77.383 E2.56457
G1 X147.79 Y78.159 E2.59249
G1 X147.919 Y78.51 E2.60493
G1 X148.181 Y79.318 E2.63318
G1 X148.293 Y79.715 E2.6469
G1 X148.506 Y80.614 E2.67763
G1 X148.581 Y81.002 E2.69077
G1 X148.704 Y81.792 E2.71736
G1 X148.747 Y82.154 E2.72949
G1 X148.822 Y83.242 E2.76576
G1 X148.848 Y84.606 E2.81113
G1 X148.85 Y84.816 E2.81812
G1 X148.85 Y135.159 E4.49253
G1 X148.848 Y135.365 E4.49939
G1 X148.822 Y136.756 E4.54566
G1 X148.745 Y137.869 E4.58277
G1 X148.699 Y138.25 E4.59553
G1 X148.574 Y139.041 E4.62217
G1 X148.505 Y139.394 E4.63413
G1 X148.309 Y140.224 E4.66249
G1 X148.195 Y140.635 E4.67668
G1 X147.904 Y141.533 E4.70808
G1 X147.767 Y141.901 E4.72114
G1 X147.449 Y142.666 E4.74869
G1 X147.273 Y143.048 E4.76268
G1 X146.835 Y143.899 E4.79451
G1 X146.654 Y144.216 E4.80666
G1 X146.262 Y144.85 E4.83145
G1 X146.05 Y145.169 E4.84419
G1 X145.528 Y145.891 E4.87382
G1 X145.286 Y146.198 E4.88682
G1 X144.736 Y146.842 E4.91499
G1 X144.466 Y147.135 E4.92824
G1 X143.846 Y147.757 E4.95745
G1 X143.58 Y148.003 E4.9695
G1 X142.953 Y148.54 E4.99696
G1 X142.632 Y148.795 E5.01059
G1 X141.939 Y149.303 E5.03917
G1 X141.626 Y149.514 E5.05173
G1 X140.848 Y149.992 E5.0821
G1 X140.487 Y150.194 E5.09586
G1 X139.719 Y150.586 E5.12454
G1 X139.35 Y150.756 E5.13805
G1 X138.515 Y151.099 E5.16807
G1 X138.153 Y151.231 E5.18089
G1 X137.367 Y151.485 E5.20836
G1 X136.98 Y151.594 E5.22173
G1 X136.086 Y151.806 E5.25229
G1 X135.698 Y151.881 E5.26544
G1 X134.9 Y152.005 E5.2923
G1 X134.536 Y152.048 E5.30449
G1 X133.456 Y152.122 E5.34049
G1 X132.094 Y152.148 E5.3858
G1 X131.884 Y152.15 E5.39279
G1 X88.116 Y152.15 E6.84852
G1 X87.907 Y152.148 E6.85547
G1 X86.541 Y152.122 E6.90091
G1 X85.431 Y152.045 E6.93792
G1 X85.05 Y151.999 E6.95068
G1 X84.259 Y151.874 E6.97732
G1 X83.906 Y151.805 E6.98928
G1 X83.059 Y151.604 E7.01823
G1 X82.629 Y151.484 E7.03308
G1 X81.724 Y151.189 E7.06474
G1 X81.364 Y151.054 E7.07753
G1 X80.599 Y150.734 E7.10511
G1 X80.228 Y150.562 E7.11871
G1 X79.417 Y150.144 E7.14906
G1 X79.097 Y149.962 E7.1613
G1 X78.427 Y149.548 E7.1875
G1 X78.111 Y149.337 E7.20013
G1 X77.398 Y148.819 E7.22945
G1 X77.083 Y148.57 E7.2428
G1 X76.431 Y148.011 E7.27137
G1 X76.134 Y147.736 E7.28483
G1 X75.506 Y147.106 E7.31441
G1 X75.269 Y146.848 E7.32607
G1 X74.752 Y146.242 E7.35256
G1 X74.499 Y145.923 E7.3661
G1 X73.977 Y145.209 E7.39552
G1 X73.758 Y144.882 E7.40861
G1 X73.308 Y144.149 E7.43722
G1 X73.108 Y143.793 E7.4508
G1 X72.693 Y142.976 E7.48128
G1 X72.529 Y142.617 E7.4944
G1 X72.194 Y141.798 E7.52383
G1 X72.063 Y141.437 E7.53661
G1 X71.815 Y140.667 E7.56351
G1 X71.706 Y140.28 E7.57689
G1 X71.494 Y139.386 E7.60744
G1 X71.419 Y138.998 E7.62059
G1 X71.294 Y138.19 E7.64778
G1 X71.251 Y137.823 E7.66007
G1 X71.178 Y136.75 E7.69584
G1 X71.152 Y135.366 E7.74188
G1 X71.15 Y135.159 E7.74877
G1 X71.15 Y84.816 E9.42318
G1 X71.152 Y84.607 E9.43014
G1 X71.178 Y83.241 E9.47558
G1 X71.254 Y82.138 E9.51235
G1 X71.3 Y81.755 E9.52518
G1 X71.427 Y80.951 E9.55225
G1 X71.496 Y80.599 E9.56418
G1 X71.695 Y79.762 E9.5928
G1 X71.814 Y79.335 E9.60754
G1 X72.113 Y78.419 E9.63959
G1 X72.249 Y78.057 E9.65245
G1 X72.566 Y77.299 E9.67978
G1 X72.738 Y76.928 E9.69338
G1 X73.176 Y76.082 E9.72506
G1 X73.367 Y75.749 E9.73783
G1 X73.766 Y75.106 E9.763
G1 X73.968 Y74.804 E9.77509
G1 X74.475 Y74.106 E9.80378
G1 X74.733 Y73.779 E9.81763
G1 X75.307 Y73.109 E9.84698
G1 X75.566 Y72.83 E9.85964
G0 F6000 X75.859 Y73.102
G1 F1200 X76.437 Y72.526 E9.88678
G1 X76.698 Y72.285 E9.8986
G1 X77.296 Y71.773 E9.92478
G1 X77.617 Y71.518 E9.93841
G1 X78.305 Y71.015 E9.96676
G1 X78.63 Y70.797 E9.97978
G1 X79.355 Y70.352 E10.00807
G1 X79.721 Y70.147 E10.02202
G1 X80.525 Y69.74 E10.052
G1 X80.878 Y69.58 E10.06489
G1 X81.614 Y69.28 E10.09132
G1 X81.975 Y69.148 E10.10411
G1 X82.741 Y68.9 E10.13088
G1 X83.128 Y68.791 E10.14426
G1 X83.99 Y68.587 E10.17372
G1 X84.378 Y68.512 E10.18686
G1 X85.14 Y68.393 E10.21251
G1 X85.502 Y68.35 E10.22464
G1 X86.55 Y68.278 E10.25958
G1 X87.914 Y68.252 E10.30495
G1 X88.116 Y68.25 E10.31167
G1 X131.884 Y68.25 E11.7674
G1 X132.086 Y68.252 E11.77412
G1 X133.452 Y68.278 E11.81956
G1 X134.521 Y68.352 E11.8552
G1 X134.902 Y68.398 E11.86797
G1 X135.653 Y68.517 E11.89326
G1 X136.003 Y68.585 E11.90511
G1 X136.824 Y68.778 E11.93317
G1 X137.255 Y68.898 E11.94805
G1 X138.14 Y69.187 E11.97901
G1 X138.502 Y69.323 E11.99187
G1 X139.241 Y69.633 E12.01853
G1 X139.609 Y69.804 E12.03202
G1 X140.379 Y70.201 E12.06084
G1 X140.701 Y70.384 E12.07316
G1 X141.35 Y70.785 E12.09853
G1 X141.666 Y70.996 E12.11117
G1 X142.341 Y71.485 E12.13889
G1 X142.657 Y71.734 E12.15227
G1 X143.289 Y72.274 E12.17992
G1 X143.578 Y72.541 E12.19301
G1 X144.172 Y73.135 E12.22095
G1 X144.414 Y73.397 E12.23281
G1 X144.937 Y74.008 E12.25956
G1 X145.192 Y74.33 E12.27322
G1 X145.671 Y74.986 E12.30024
G1 X145.882 Y75.299 E12.31279
G1 X146.339 Y76.04 E12.34175
G1 X146.547 Y76.411 E12.35589
G1 X146.943 Y77.19 E12.38496
G1 X147.107 Y77.549 E12.39809
G1 X147.414 Y78.297 E12.42498
G1 X147.543 Y78.648 E12.43742
G1 X147.796 Y79.427 E12.46466
G1 X147.908 Y79.824 E12.47838
G1 X148.113 Y80.69 E12.50798
G1 X148.188 Y81.078 E12.52112
G1 X148.307 Y81.84 E12.54677
G1 X148.35 Y82.202 E12.5589
G1 X148.422 Y83.25 E12.59384
G1 X148.448 Y84.614 E12.63921
G1 X148.45 Y84.816 E12.64593
G1 X148.45 Y135.159 E14.32035
G1 X148.448 Y135.357 E14.32693
G1 X148.422 Y136.748 E14.3732
G1 X148.348 Y137.821 E14.40898
G1 X148.302 Y138.202 E14.42174
G1 X148.181 Y138.964 E14.4474
G1 X148.112 Y139.317 E14.45937
G1 X147.923 Y140.117 E14.48671
G1 X147.809 Y140.528 E14.50089
G1 X147.529 Y141.393 E14.53113
G1 X147.392 Y141.761 E14.54419
G1 X147.085 Y142.499 E14.57078
G1 X146.909 Y142.881 E14.58477
G1 X146.487 Y143.701 E14.61544
G1 X146.306 Y144.018 E14.62758
G1 X145.929 Y144.629 E14.65146
G1 X145.717 Y144.948 E14.6642
G1 X145.214 Y145.643 E14.69273
G1 X144.972 Y145.95 E14.70574
G1 X144.442 Y146.571 E14.73289
G1 X144.172 Y146.864 E14.74614
G1 X143.574 Y147.463 E14.77429
G1 X143.308 Y147.709 E14.78634
G1 X142.704 Y148.227 E14.81281
G1 X142.383 Y148.482 E14.82645
G1 X141.715 Y148.971 E14.85398
G1 X141.402 Y149.182 E14.86653
G1 X140.653 Y149.643 E14.89579
G1 X140.292 Y149.845 E14.90955
G1 X139.551 Y150.222 E14.9372
G1 X139.182 Y150.392 E14.95071
G1 X138.378 Y150.724 E14.97964
G1 X138.016 Y150.856 E14.99246
G1 X137.259 Y151.1 E15.01891
G1 X136.872 Y151.209 E15.03228
G1 X136.01 Y151.413 E15.06175
G1 X135.622 Y151.488 E15.07489
G1 X134.854 Y151.608 E15.10074
G1 X134.49 Y151.651 E15.11293
G1 X133.448 Y151.722 E15.14767
G1 X132.086 Y151.748 E15.19298
G1 X131.884 Y151.75 E15.1997
G1 X88.116 Y151.75 E16.65543
G1 X87.914 Y151.748 E16.66215
G1 X86.548 Y151.722 E16.70759
G1 X85.479 Y151.648 E16.74323
G1 X85.098 Y151.602 E16.75599
G1 X84.336 Y151.481 E16.78166
G1 X83.983 Y151.412 E16.79362
G1 X83.167 Y151.219 E16.82151
G1 X82.737 Y151.099 E16.83636
G1 X81.864 Y150.814 E16.8669
G1 X81.504 Y150.679 E16.87969
G1 X80.768 Y150.371 E16.90622
G1 X80.397 Y150.199 E16.91983
G1 X79.615 Y149.796 E16.94909
G1 X79.295 Y149.614 E16.96133
G1 X78.649 Y149.215 E16.98658
G1 X78.333 Y149.004 E16.99922
G1 X77.646 Y148.505 E17.02746
G1 X77.331 Y148.256 E17.04082
G1 X76.702 Y147.718 E17.06835
G1 X76.405 Y147.443 E17.08181
G1 X75.801 Y146.836 E17.11029
G1 X75.564 Y146.578 E17.12194
G1 X75.065 Y145.994 E17.14749
G1 X74.812 Y145.675 E17.16103
G1 X74.31 Y144.986 E17.18939
G1 X74.091 Y144.659 E17.20248
G1 X73.657 Y143.953 E17.23004
G1 X73.457 Y143.597 E17.24362
G1 X73.056 Y142.81 E17.273
G1 X72.892 Y142.451 E17.28613
G1 X72.57 Y141.662 E17.31447
G1 X72.439 Y141.301 E17.32724
G1 X72.2 Y140.559 E17.35317
G1 X72.091 Y140.172 E17.36654
G1 X71.887 Y139.31 E17.39601
G1 X71.812 Y138.922 E17.40915
G1 X71.691 Y138.144 E17.43534
G1 X71.648 Y137.777 E17.44763
G1 X71.578 Y136.742 E17.48213
G1 X71.552 Y135.358 E17.52817
G1 X71.55 Y135.159 E17.53479
G1 X71.55 Y84.816 E19.2092
G1 X71.552 Y84.614 E19.21592
G1 X71.578 Y83.248 E19.26136
G1 X71.652 Y82.186 E19.29677
G1 X71.698 Y81.803 E19.3096
G1 X71.82 Y81.028 E19.3357
G1 X71.889 Y80.676 E19.34763
G1 X72.08 Y79.869 E19.37521
G1 X72.199 Y79.442 E19.38995
G1 X72.487 Y78.56 E19.42081
G1 X72.623 Y78.198 E19.43367
G1 X72.929 Y77.468 E19.46
G1 X73.101 Y77.097 E19.4736
G1 X73.523 Y76.281 E19.50416
G1 X73.714 Y75.948 E19.51692
G1 X74.098 Y75.329 E19.54115
G1 X74.3 Y75.027 E19.55324
G1 X74.789 Y74.354 E19.58091
G1 X75.047 Y74.027 E19.59476
G1 X75.6 Y73.381 E19.62304
G1 X75.859 Y73.102 E19.6357
G0 F6000 X76.153 Y73.374
G1 F1200 X76.708 Y72.82 E19.66179
G1 X76.969 Y72.579 E19.6736
G1 X77.544 Y72.086 E19.69879
G1 X77.865 Y71.831 E19.71243
G1 X78.528 Y71.347 E19.73973
G1 X78.853 Y71.129 E19.75275
G1 X79.551 Y70.701 E19.77998
G1 X79.917 Y70.496 E19.79393
G1 X80.69 Y70.105 E19.82274
G1 X81.043 Y69.945 E19.83564
G1 X81.751 Y69.655 E19.86108
G1 X82.112 Y69.523 E19.87387
G1 X82.85 Y69.285 E19.89966
G1 X83.237 Y69.176 E19.91303
G1 X84.066 Y68.979 E19.94137
G1 X84.454 Y68.904 E19.95451
G1 X85.187 Y68.79 E19.97919
G1 X85.549 Y68.747 E19.99131
G1 X86.558 Y68.678 E20.02495
G1 X87.922 Y68.652 E20.07032
G1 X88.116 Y68.65 E20.07678
G1 X131.884 Y68.65 E21.53251
G1 X132.078 Y68.652 E21.53896
G1 X133.444 Y68.678 E21.5844
G1 X134.473 Y68.75 E21.61871
G1 X134.854 Y68.796 E21.63147
G1 X135.576 Y68.909 E21.65578
G1 X135.926 Y68.977 E21.66764
G1 X136.717 Y69.164 E21.69467
G1 X137.148 Y69.284 E21.70955
G1 X137.999 Y69.562 E21.73933
G1 X138.361 Y69.698 E21.75219
G1 X139.072 Y69.996 E21.77783
G1 X139.44 Y70.167 E21.79133
G1 X140.182 Y70.549 E21.81909
G1 X140.504 Y70.732 E21.83141
G1 X141.128 Y71.117 E21.85579
G1 X141.444 Y71.328 E21.86843
G1 X142.093 Y71.799 E21.8951
G1 X142.409 Y72.048 E21.90848
G1 X143.018 Y72.568 E21.93512
G1 X143.307 Y72.835 E21.9482
G1 X143.878 Y73.406 E21.97506
G1 X144.12 Y73.668 E21.98692
G1 X144.623 Y74.257 E22.01269
G1 X144.878 Y74.579 E22.02635
G1 X145.34 Y75.209 E22.05233
G1 X145.551 Y75.522 E22.06489
G1 X145.99 Y76.236 E22.09276
G1 X146.198 Y76.607 E22.10691
G1 X146.579 Y77.357 E22.13489
G1 X146.743 Y77.716 E22.14802
G1 X147.039 Y78.435 E22.17388
G1 X147.168 Y78.786 E22.18632
G1 X147.411 Y79.536 E22.21254
G1 X147.523 Y79.933 E22.22626
G1 X147.721 Y80.766 E22.25474
G1 X147.796 Y81.154 E22.26788
G1 X147.91 Y81.887 E22.29255
G1 X147.953 Y82.249 E22.30468
G1 X148.022 Y83.258 E22.33831
G1 X148.048 Y84.622 E22.38369
G1 X148.05 Y84.816 E22.39014
G1 X148.05 Y135.159 E24.06456
G1 X148.048 Y135.35 E24.07091
G1 X148.022 Y136.741 E24.11718
G1 X147.95 Y137.773 E24.15159
G1 X147.904 Y138.154 E24.16436
G1 X147.789 Y138.888 E24.18907
G1 X147.72 Y139.241 E24.20103
G1 X147.538 Y140.01 E24.22731
G1 X147.424 Y140.421 E24.2415
G1 X147.154 Y141.254 E24.27062
G1 X147.017 Y141.622 E24.28368
G1 X146.722 Y142.331 E24.30922
G1 X146.546 Y142.713 E24.32321
G1 X146.14 Y143.503 E24.35276
G1 X145.959 Y143.82 E24.3649
G1 X145.596 Y144.408 E24.38788
G1 X145.384 Y144.727 E24.40062
G1 X144.899 Y145.395 E24.42808
G1 X144.657 Y145.702 E24.44108
G1 X144.148 Y146.3 E24.4672
G1 X143.878 Y146.593 E24.48045
G1 X143.302 Y147.17 E24.50757
G1 X143.036 Y147.416 E24.51962
G1 X142.456 Y147.914 E24.54504
G1 X142.135 Y148.169 E24.55868
G1 X141.492 Y148.64 E24.58519
G1 X141.179 Y148.851 E24.59774
G1 X140.458 Y149.294 E24.62589
G1 X140.097 Y149.496 E24.63965
G1 X139.384 Y149.859 E24.66626
G1 X139.015 Y150.029 E24.67977
G1 X138.241 Y150.348 E24.70762
G1 X137.879 Y150.48 E24.72043
G1 X137.15 Y150.715 E24.74591
G1 X136.763 Y150.824 E24.75928
G1 X135.934 Y151.021 E24.78762
G1 X135.546 Y151.096 E24.80076
G1 X134.807 Y151.211 E24.82564
G1 X134.443 Y151.254 E24.83783
G1 X133.441 Y151.322 E24.87123
G1 X132.079 Y151.348 E24.91654
G1 X131.884 Y151.35 E24.92303
G1 X88.116 Y151.35 E26.37876
G1 X87.922 Y151.348 E26.38521
G1 X86.556 Y151.322 E26.43065
G1 X85.527 Y151.25 E26.46496
G1 X85.146 Y151.204 E26.47772
G1 X84.412 Y151.089 E26.50243
G1 X84.059 Y151.02 E26.5144
G1 X83.274 Y150.834 E26.54123
G1 X82.844 Y150.714 E26.55608
G1 X82.005 Y150.44 E26.58543
G1 X81.645 Y150.305 E26.59822
G1 X80.936 Y150.008 E26.62379
G1 X80.565 Y149.836 E26.63739
G1 X79.812 Y149.448 E26.66556
G1 X79.492 Y149.266 E26.67781
G1 X78.871 Y148.883 E26.70207
G1 X78.555 Y148.672 E26.71471
G1 X77.894 Y148.191 E26.7419
G1 X77.579 Y147.942 E26.75526
G1 X76.974 Y147.424 E26.78175
G1 X76.677 Y147.149 E26.79521
G1 X76.095 Y146.565 E26.82263
G1 X75.858 Y146.307 E26.83428
G1 X75.378 Y145.745 E26.85887
G1 X75.125 Y145.426 E26.87241
G1 X74.642 Y144.764 E26.89966
G1 X74.423 Y144.437 E26.91275
G1 X74.005 Y143.757 E26.9393
G1 X73.805 Y143.401 E26.95288
G1 X73.42 Y142.643 E26.98116
G1 X73.256 Y142.284 E26.99429
G1 X72.946 Y141.525 E27.02156
G1 X72.815 Y141.164 E27.03433
G1 X72.585 Y140.45 E27.05928
G1 X72.476 Y140.063 E27.07265
G1 X72.279 Y139.234 E27.10099
G1 X72.204 Y138.846 E27.11414
G1 X72.088 Y138.097 E27.13934
G1 X72.045 Y137.73 E27.15163
G1 X71.978 Y136.735 E27.1848
G1 X71.952 Y135.351 E27.23084
G1 X71.95 Y135.159 E27.23723
G1 X71.95 Y84.816 E28.91164
G1 X71.952 Y84.622 E28.9181
G1 X71.978 Y83.256 E28.96354
G1 X72.049 Y82.234 E28.99761
G1 X72.095 Y81.851 E29.01044
G1 X72.212 Y81.105 E29.03556
G1 X72.281 Y80.753 E29.04749
G1 X72.465 Y79.977 E29.07401
G1 X72.584 Y79.55 E29.08876
G1 X72.862 Y78.701 E29.11847
G1 X72.998 Y78.339 E29.13133
G1 X73.292 Y77.636 E29.15668
G1 X73.464 Y77.265 E29.17028
G1 X73.87 Y76.48 E29.19967
G1 X74.061 Y76.147 E29.21244
G1 X74.431 Y75.551 E29.23577
G1 X74.633 Y75.249 E29.24786
G1 X75.103 Y74.602 E29.27445
G1 X75.361 Y74.275 E29.28831
G1 X75.894 Y73.653 E29.31555
G1 X76.153 Y73.374 E29.32821
G1 F1500 E22.82821
;MESH:NodeMCU Holder.stl
G0 F6000 X82.131 Y81.228
G0 X83.076 Y81.757
G0 X85.685 Y80.313
G0 X86.543 Y80.071
G0 X87.199 Y80.021
G0 X95.633 Y80.05
