;FLAVOR:Marlin
;TIME:33053
;Filament used: 26.4951m
;Layer height: 0.16
;MINX:78.7
;MINY:46.264
;MINZ:0.2
;MAXX:156.3
;MAXY:188.84
;MAXZ:19.92
;Generated with Cura_SteamEngine 5.2.1
M140 S60
M105
M190 S60
M104 S200
M105
M109 S200
M82 ;absolute extrusion mode
M201 X500.00 Y500.00 Z100.00 E5000.00 ;Setup machine max acceleration
M203 X500.00 Y500.00 Z10.00 E50.00 ;Setup machine max feedrate
M204 P500.00 R1000.00 T500.00 ;Setup Print/Retract/Travel acceleration
M205 X8.00 Y8.00 Z0.40 E5.00 ;Setup Jerk
M220 S100 ;Reset Feedrate
M221 S100 ;Reset Flowrate

G28 ;Home

G92 E0 ;Reset Extruder
G1 Z2.0 F3000 ;Move Z Axis up
G1 X10.1 Y20 Z0.28 F5000.0 ;Move to start position
G1 X10.1 Y200.0 Z0.28 F1500.0 E15 ;Draw the first line
G1 X10.4 Y200.0 Z0.28 F5000.0 ;Move to side a little
G1 X10.4 Y20 Z0.28 F1500.0 E30 ;Draw the second line
G92 E0 ;Reset Extruder
G1 Z2.0 F3000 ;Move Z Axis up

G92 E0
G92 E0
G1 F1500 E-6.5
;LAYER_COUNT:104
;LAYER:0
M107
G0 F6000 X80.097 Y49.61 Z0.2
;TYPE:SKIRT
G1 F1500 E0
G1 F1200 X80.58 Y48.986 E0.02625
G1 X81.123 Y48.413 E0.0525
G1 X81.722 Y47.898 E0.07878
G1 X82.37 Y47.447 E0.10503
G1 X83.061 Y47.063 E0.13133
G1 X83.786 Y46.751 E0.15758
G1 X84.539 Y46.514 E0.18383
G1 X85.313 Y46.355 E0.21012
G1 X86.098 Y46.274 E0.23636
G1 X86.5 Y46.264 E0.24974
G1 X148.5 Y46.264 E2.31187
G1 X149.289 Y46.304 E2.33814
G1 X150.069 Y46.423 E2.36439
G1 X150.834 Y46.621 E2.39067
G1 X151.574 Y46.895 E2.41691
G1 X152.283 Y47.243 E2.44318
G1 X152.954 Y47.661 E2.46948
G1 X153.578 Y48.144 E2.49572
G1 X154.151 Y48.687 E2.52198
G1 X154.666 Y49.286 E2.54825
G1 X155.117 Y49.934 E2.57451
G1 X155.501 Y50.625 E2.6008
G1 X155.813 Y51.35 E2.62706
G1 X156.05 Y52.103 E2.65331
G1 X156.209 Y52.877 E2.67959
G1 X156.29 Y53.662 E2.70584
G1 X156.3 Y54.064 E2.71921
G1 X156.3 Y94.064 E4.04962
G1 X156.26 Y94.853 E4.0759
G1 X156.141 Y95.633 E4.10214
G1 X156.101 Y95.787 E4.10743
G1 X156.209 Y96.313 E4.12529
G1 X156.29 Y97.098 E4.15154
G1 X156.3 Y97.5 E4.16491
G1 X156.3 Y137.5 E5.49532
G1 X156.26 Y138.289 E5.52159
G1 X156.141 Y139.069 E5.54784
G1 X156.089 Y139.269 E5.55471
G1 X156.209 Y139.853 E5.57454
G1 X156.29 Y140.638 E5.60079
G1 X156.3 Y141.04 E5.61416
G1 X156.3 Y181.04 E6.94457
G1 X156.26 Y181.829 E6.97084
G1 X156.141 Y182.609 E6.99709
G1 X155.943 Y183.374 E7.02337
G1 X155.669 Y184.114 E7.04962
G1 X155.321 Y184.823 E7.07588
G1 X154.903 Y185.494 E7.10218
G1 X154.42 Y186.118 E7.12842
G1 X153.877 Y186.691 E7.15468
G1 X153.278 Y187.206 E7.18095
G1 X152.63 Y187.657 E7.20721
G1 X151.939 Y188.041 E7.23351
G1 X151.214 Y188.353 E7.25976
G1 X150.461 Y188.59 E7.28601
G1 X149.687 Y188.749 E7.31229
G1 X148.902 Y188.83 E7.33854
G1 X148.5 Y188.84 E7.35192
G1 X86.5 Y188.84 E9.41405
G1 X85.711 Y188.8 E9.44032
G1 X84.931 Y188.681 E9.46656
G1 X84.166 Y188.483 E9.49285
G1 X83.426 Y188.209 E9.51909
G1 X82.717 Y187.861 E9.54536
G1 X82.046 Y187.443 E9.57165
G1 X81.422 Y186.96 E9.5979
G1 X80.849 Y186.417 E9.62416
G1 X80.334 Y185.818 E9.65043
G1 X79.883 Y185.17 E9.67669
G1 X79.499 Y184.479 E9.70298
G1 X79.187 Y183.754 E9.72923
G1 X78.95 Y183.001 E9.75549
G1 X78.791 Y182.227 E9.78177
G1 X78.71 Y181.442 E9.80802
G1 X78.7 Y181.04 E9.82139
G1 X78.7 Y141.04 E11.1518
G1 X78.74 Y140.251 E11.17807
G1 X78.859 Y139.471 E11.20432
G1 X78.911 Y139.271 E11.21119
G1 X78.791 Y138.687 E11.23102
G1 X78.71 Y137.902 E11.25727
G1 X78.7 Y137.5 E11.27064
G1 X78.7 Y97.5 E12.60105
G1 X78.74 Y96.711 E12.62732
G1 X78.859 Y95.931 E12.65357
G1 X78.899 Y95.777 E12.65886
G1 X78.791 Y95.251 E12.67672
G1 X78.71 Y94.466 E12.70297
G1 X78.7 Y94.064 E12.71634
G1 X78.7 Y54.064 E14.04675
G1 X78.74 Y53.275 E14.07302
G1 X78.859 Y52.495 E14.09927
G1 X79.057 Y51.73 E14.12555
G1 X79.331 Y50.99 E14.15179
G1 X79.679 Y50.281 E14.17806
G1 X80.097 Y49.61 E14.20436
G0 F6000 X80.494 Y49.741
G1 F1200 X80.975 Y49.141 E14.22993
G1 X81.516 Y48.594 E14.25552
G1 X82.111 Y48.106 E14.28112
G1 X82.753 Y47.683 E14.30669
G1 X83.436 Y47.328 E14.33229
G1 X84.151 Y47.047 E14.35784
G1 X84.893 Y46.841 E14.38345
G1 X85.651 Y46.713 E14.40902
G1 X86.5 Y46.664 E14.43731
G1 X148.5 Y46.664 E16.49944
G1 X149.268 Y46.704 E16.52501
G1 X150.028 Y46.823 E16.5506
G1 X150.771 Y47.021 E16.57617
G1 X151.49 Y47.295 E16.60177
G1 X152.176 Y47.642 E16.62734
G1 X152.823 Y48.058 E16.65292
G1 X153.423 Y48.539 E16.6785
G1 X153.97 Y49.08 E16.70408
G1 X154.458 Y49.675 E16.72968
G1 X154.881 Y50.317 E16.75525
G1 X155.236 Y51 E16.78085
G1 X155.517 Y51.715 E16.8064
G1 X155.723 Y52.457 E16.83202
G1 X155.851 Y53.215 E16.85758
G1 X155.9 Y54.064 E16.88587
G1 X155.9 Y94.064 E18.21627
G1 X155.86 Y94.832 E18.24185
G1 X155.741 Y95.592 E18.26744
G1 X155.691 Y95.779 E18.27388
G1 X155.723 Y95.893 E18.27782
G1 X155.851 Y96.651 E18.30338
G1 X155.9 Y97.5 E18.33167
G1 X155.9 Y137.5 E19.66207
G1 X155.86 Y138.268 E19.68765
G1 X155.741 Y139.028 E19.71324
G1 X155.677 Y139.268 E19.7215
G1 X155.723 Y139.433 E19.7272
G1 X155.851 Y140.191 E19.75276
G1 X155.9 Y141.04 E19.78105
G1 X155.9 Y181.04 E21.11145
G1 X155.86 Y181.808 E21.13703
G1 X155.741 Y182.568 E21.16262
G1 X155.543 Y183.311 E21.18819
G1 X155.269 Y184.03 E21.21379
G1 X154.922 Y184.716 E21.23935
G1 X154.506 Y185.363 E21.26494
G1 X154.025 Y185.963 E21.29052
G1 X153.484 Y186.51 E21.3161
G1 X152.889 Y186.998 E21.3417
G1 X152.247 Y187.421 E21.36727
G1 X151.564 Y187.776 E21.39287
G1 X150.849 Y188.057 E21.41842
G1 X150.107 Y188.263 E21.44404
G1 X149.349 Y188.391 E21.4696
G1 X148.5 Y188.44 E21.49789
G1 X86.5 Y188.44 E23.56002
G1 X85.732 Y188.4 E23.5856
G1 X84.972 Y188.281 E23.61118
G1 X84.229 Y188.083 E23.63676
G1 X83.51 Y187.809 E23.66235
G1 X82.824 Y187.462 E23.68792
G1 X82.177 Y187.046 E23.7135
G1 X81.577 Y186.565 E23.73908
G1 X81.03 Y186.024 E23.76467
G1 X80.542 Y185.429 E23.79026
G1 X80.119 Y184.787 E23.81583
G1 X79.764 Y184.104 E23.84143
G1 X79.483 Y183.389 E23.86699
G1 X79.277 Y182.647 E23.8926
G1 X79.149 Y181.889 E23.91817
G1 X79.1 Y181.04 E23.94645
G1 X79.1 Y141.04 E25.27686
G1 X79.14 Y140.272 E25.30243
G1 X79.259 Y139.512 E25.32802
G1 X79.323 Y139.272 E25.33628
G1 X79.277 Y139.107 E25.34198
G1 X79.149 Y138.349 E25.36755
G1 X79.1 Y137.5 E25.39583
G1 X79.1 Y97.5 E26.72624
G1 X79.14 Y96.732 E26.75182
G1 X79.259 Y95.972 E26.7774
G1 X79.309 Y95.785 E26.78384
G1 X79.277 Y95.671 E26.78778
G1 X79.149 Y94.913 E26.81335
G1 X79.1 Y94.064 E26.84163
G1 X79.1 Y54.064 E28.17204
G1 X79.14 Y53.296 E28.19761
G1 X79.259 Y52.536 E28.2232
G1 X79.457 Y51.793 E28.24877
G1 X79.731 Y51.074 E28.27437
G1 X80.078 Y50.388 E28.29994
G1 X80.494 Y49.741 E28.32552
G0 F6000 X80.892 Y49.875
G1 F1200 X81.371 Y49.301 E28.35038
G1 X81.908 Y48.78 E28.37527
G1 X82.498 Y48.321 E28.40013
G1 X83.134 Y47.926 E28.42503
G1 X83.808 Y47.602 E28.44991
G1 X84.513 Y47.352 E28.47479
G1 X85.241 Y47.178 E28.49968
G1 X85.983 Y47.083 E28.52456
G1 X86.5 Y47.064 E28.54177
G1 X148.5 Y47.064 E30.6039
G1 X149.247 Y47.104 E30.62878
G1 X149.985 Y47.223 E30.65364
G1 X150.707 Y47.421 E30.67854
G1 X151.403 Y47.694 E30.70341
G1 X152.066 Y48.041 E30.7283
G1 X152.689 Y48.456 E30.75319
G1 X153.263 Y48.935 E30.77806
G1 X153.784 Y49.472 E30.80295
G1 X154.243 Y50.062 E30.82781
G1 X154.638 Y50.698 E30.85271
G1 X154.962 Y51.372 E30.87758
G1 X155.212 Y52.077 E30.90246
G1 X155.386 Y52.805 E30.92736
G1 X155.481 Y53.547 E30.95224
G1 X155.5 Y54.064 E30.96944
G1 X155.5 Y94.064 E32.29985
G1 X155.46 Y94.811 E32.32473
G1 X155.341 Y95.549 E32.34959
G1 X155.277 Y95.784 E32.35769
G1 X155.386 Y96.241 E32.37332
G1 X155.481 Y96.983 E32.3982
G1 X155.5 Y97.5 E32.41541
G1 X155.5 Y137.5 E33.74581
G1 X155.46 Y138.247 E33.77069
G1 X155.341 Y138.985 E33.79556
G1 X155.263 Y139.268 E33.80532
G1 X155.386 Y139.781 E33.82287
G1 X155.481 Y140.523 E33.84775
G1 X155.5 Y141.04 E33.86495
G1 X155.5 Y181.04 E35.19536
G1 X155.46 Y181.787 E35.22024
G1 X155.341 Y182.525 E35.2451
G1 X155.143 Y183.247 E35.27
G1 X154.87 Y183.943 E35.29487
G1 X154.523 Y184.606 E35.31976
G1 X154.108 Y185.229 E35.34466
G1 X153.629 Y185.803 E35.36952
G1 X153.092 Y186.324 E35.39441
G1 X152.502 Y186.783 E35.41927
G1 X151.866 Y187.178 E35.44417
G1 X151.192 Y187.502 E35.46904
G1 X150.487 Y187.752 E35.49392
G1 X149.759 Y187.926 E35.51882
G1 X149.017 Y188.021 E35.5437
G1 X148.5 Y188.04 E35.56091
G1 X86.5 Y188.04 E37.62303
G1 X85.753 Y188 E37.64792
G1 X85.015 Y187.881 E37.67278
G1 X84.293 Y187.683 E37.69768
G1 X83.597 Y187.41 E37.72255
G1 X82.934 Y187.063 E37.74743
G1 X82.311 Y186.648 E37.77233
G1 X81.737 Y186.169 E37.7972
G1 X81.216 Y185.632 E37.82208
G1 X80.757 Y185.042 E37.84695
G1 X80.362 Y184.406 E37.87185
G1 X80.038 Y183.732 E37.89672
G1 X79.788 Y183.027 E37.9216
G1 X79.614 Y182.299 E37.94649
G1 X79.519 Y181.557 E37.97137
G1 X79.5 Y181.04 E37.98858
G1 X79.5 Y141.04 E39.31899
G1 X79.54 Y140.293 E39.34387
G1 X79.659 Y139.555 E39.36873
G1 X79.737 Y139.272 E39.37849
G1 X79.614 Y138.759 E39.39604
G1 X79.519 Y138.017 E39.42092
G1 X79.5 Y137.5 E39.43813
G1 X79.5 Y97.5 E40.76853
G1 X79.54 Y96.753 E40.79341
G1 X79.659 Y96.015 E40.81828
G1 X79.723 Y95.78 E40.82638
G1 X79.614 Y95.323 E40.842
G1 X79.519 Y94.581 E40.86688
G1 X79.5 Y94.064 E40.88409
G1 X79.5 Y54.064 E42.2145
G1 X79.54 Y53.317 E42.23938
G1 X79.659 Y52.579 E42.26424
G1 X79.857 Y51.857 E42.28914
G1 X80.13 Y51.161 E42.31401
G1 X80.477 Y50.498 E42.3389
G1 X80.892 Y49.875 E42.36379
G0 F6000 X81.289 Y50.014
G1 F1200 X81.765 Y49.466 E42.38794
G1 X82.299 Y48.973 E42.41211
G1 X82.884 Y48.543 E42.43626
G1 X83.513 Y48.179 E42.46043
G1 X84.178 Y47.886 E42.4846
G1 X84.871 Y47.668 E42.50876
G1 X85.583 Y47.528 E42.5329
G1 X86.5 Y47.464 E42.56347
G1 X148.5 Y47.464 E44.6256
G1 X149.225 Y47.504 E44.64975
G1 X149.942 Y47.623 E44.67392
G1 X150.641 Y47.821 E44.69809
G1 X151.314 Y48.094 E44.72224
G1 X151.953 Y48.439 E44.74639
G1 X152.55 Y48.853 E44.77056
G1 X153.098 Y49.329 E44.7947
G1 X153.591 Y49.863 E44.81887
G1 X154.021 Y50.448 E44.84302
G1 X154.385 Y51.077 E44.86719
G1 X154.678 Y51.742 E44.89136
G1 X154.896 Y52.435 E44.91552
G1 X155.036 Y53.147 E44.93966
G1 X155.1 Y54.064 E44.97023
G1 X155.1 Y94.064 E46.30064
G1 X155.06 Y94.789 E46.32479
G1 X154.941 Y95.506 E46.34896
G1 X154.872 Y95.749 E46.35736
G1 X155.036 Y96.583 E46.38563
G1 X155.1 Y97.5 E46.41621
G1 X155.1 Y137.5 E47.74661
G1 X155.06 Y138.225 E47.77076
G1 X154.941 Y138.942 E47.79494
G1 X154.85 Y139.264 E47.80607
G1 X154.896 Y139.411 E47.81119
G1 X155.036 Y140.123 E47.83532
G1 X155.1 Y141.04 E47.8659
G1 X155.1 Y181.04 E49.1963
G1 X155.06 Y181.765 E49.22045
G1 X154.941 Y182.482 E49.24463
G1 X154.743 Y183.181 E49.26879
G1 X154.47 Y183.854 E49.29295
G1 X154.125 Y184.493 E49.3171
G1 X153.711 Y185.09 E49.34126
G1 X153.235 Y185.638 E49.36541
G1 X152.701 Y186.131 E49.38958
G1 X152.116 Y186.561 E49.41373
G1 X151.487 Y186.925 E49.4379
G1 X150.822 Y187.218 E49.46207
G1 X150.129 Y187.436 E49.48623
G1 X149.417 Y187.576 E49.51036
G1 X148.5 Y187.64 E49.54094
G1 X86.5 Y187.64 E51.60307
G1 X85.775 Y187.6 E51.62722
G1 X85.058 Y187.481 E51.65139
G1 X84.359 Y187.283 E51.67555
G1 X83.686 Y187.01 E51.69971
G1 X83.047 Y186.665 E51.72386
G1 X82.45 Y186.251 E51.74803
G1 X81.902 Y185.775 E51.77217
G1 X81.409 Y185.241 E51.79634
G1 X80.979 Y184.656 E51.82049
G1 X80.615 Y184.027 E51.84466
G1 X80.322 Y183.362 E51.86883
G1 X80.104 Y182.669 E51.89299
G1 X79.964 Y181.957 E51.91713
G1 X79.9 Y181.04 E51.9477
G1 X79.9 Y141.04 E53.27811
G1 X79.94 Y140.315 E53.30226
G1 X80.059 Y139.598 E53.32643
G1 X80.15 Y139.276 E53.33756
G1 X80.104 Y139.129 E53.34268
G1 X79.964 Y138.417 E53.36682
G1 X79.9 Y137.5 E53.39739
G1 X79.9 Y97.5 E54.7278
G1 X79.94 Y96.775 E54.75195
G1 X80.059 Y96.058 E54.77612
G1 X80.128 Y95.815 E54.78452
G1 X79.964 Y94.981 E54.81279
G1 X79.9 Y94.064 E54.84337
G1 X79.9 Y54.064 E56.17377
G1 X79.94 Y53.339 E56.19792
G1 X80.059 Y52.622 E56.2221
G1 X80.257 Y51.923 E56.24626
G1 X80.53 Y51.25 E56.27042
G1 X80.875 Y50.611 E56.29457
G1 X81.289 Y50.014 E56.31873
G0 F6000 X81.685 Y50.158
G1 F1200 X82.159 Y49.637 E56.34216
G1 X82.689 Y49.173 E56.36559
G1 X83.268 Y48.773 E56.38899
G1 X83.889 Y48.441 E56.41241
G1 X84.543 Y48.181 E56.43582
G1 X85.223 Y47.997 E56.45925
G1 X85.919 Y47.891 E56.48267
G1 X86.5 Y47.864 E56.50201
G1 X148.5 Y47.864 E58.56414
G1 X149.203 Y47.904 E58.58756
G1 X149.897 Y48.023 E58.61098
G1 X150.572 Y48.221 E58.63438
G1 X151.221 Y48.493 E58.65778
G1 X151.835 Y48.838 E58.68121
G1 X152.406 Y49.249 E58.70461
G1 X152.927 Y49.723 E58.72803
G1 X153.391 Y50.253 E58.75146
G1 X153.791 Y50.832 E58.77487
G1 X154.123 Y51.453 E58.79829
G1 X154.383 Y52.107 E58.8217
G1 X154.567 Y52.787 E58.84513
G1 X154.673 Y53.483 E58.86854
G1 X154.7 Y54.064 E58.88789
G1 X154.7 Y94.064 E60.2183
G1 X154.66 Y94.767 E60.24172
G1 X154.541 Y95.461 E60.26513
G1 X154.447 Y95.781 E60.27623
G1 X154.567 Y96.223 E60.29146
G1 X154.673 Y96.919 E60.31488
G1 X154.7 Y97.5 E60.33422
G1 X154.7 Y137.5 E61.66463
G1 X154.66 Y138.203 E61.68805
G1 X154.541 Y138.897 E61.71147
G1 X154.433 Y139.266 E61.72425
G1 X154.567 Y139.763 E61.74137
G1 X154.673 Y140.459 E61.76479
G1 X154.7 Y141.04 E61.78414
G1 X154.7 Y181.04 E63.11454
G1 X154.66 Y181.743 E63.13796
G1 X154.541 Y182.437 E63.16138
G1 X154.343 Y183.112 E63.18478
G1 X154.071 Y183.761 E63.20818
G1 X153.726 Y184.375 E63.23161
G1 X153.315 Y184.946 E63.25501
G1 X152.841 Y185.467 E63.27843
G1 X152.311 Y185.931 E63.30186
G1 X151.732 Y186.331 E63.32527
G1 X151.111 Y186.663 E63.34869
G1 X150.457 Y186.923 E63.3721
G1 X149.777 Y187.107 E63.39553
G1 X149.081 Y187.213 E63.41894
G1 X148.5 Y187.24 E63.43829
G1 X86.5 Y187.24 E65.50042
G1 X85.797 Y187.2 E65.52384
G1 X85.103 Y187.081 E65.54726
G1 X84.428 Y186.883 E65.57065
G1 X83.779 Y186.611 E65.59406
G1 X83.165 Y186.266 E65.61748
G1 X82.594 Y185.855 E65.64088
G1 X82.073 Y185.381 E65.66431
G1 X81.609 Y184.851 E65.68774
G1 X81.209 Y184.272 E65.71114
G1 X80.877 Y183.651 E65.73456
G1 X80.617 Y182.997 E65.75797
G1 X80.433 Y182.317 E65.7814
G1 X80.327 Y181.621 E65.80482
G1 X80.3 Y181.04 E65.82416
G1 X80.3 Y141.04 E67.15457
G1 X80.34 Y140.337 E67.17799
G1 X80.459 Y139.643 E67.20141
G1 X80.567 Y139.274 E67.2142
G1 X80.433 Y138.777 E67.23132
G1 X80.327 Y138.081 E67.25473
G1 X80.3 Y137.5 E67.27408
G1 X80.3 Y97.5 E68.60448
G1 X80.34 Y96.797 E68.6279
G1 X80.459 Y96.103 E68.65132
G1 X80.553 Y95.783 E68.66242
G1 X80.433 Y95.341 E68.67765
G1 X80.327 Y94.645 E68.70106
G1 X80.3 Y94.064 E68.72041
G1 X80.3 Y54.064 E70.05081
G1 X80.34 Y53.361 E70.07423
G1 X80.459 Y52.667 E70.09765
G1 X80.657 Y51.992 E70.12105
G1 X80.929 Y51.343 E70.14446
G1 X81.274 Y50.729 E70.16788
G1 X81.685 Y50.158 E70.19128
G0 F6000 X82.082 Y50.306
G1 F1200 X82.553 Y49.815 E70.21391
G1 X83.078 Y49.381 E70.23656
G1 X83.65 Y49.012 E70.2592
G1 X84.262 Y48.713 E70.28186
G1 X84.904 Y48.488 E70.30449
G1 X85.569 Y48.339 E70.32715
G1 X86.5 Y48.264 E70.35822
G1 X148.5 Y48.264 E72.42035
G1 X149.18 Y48.304 E72.443
G1 X149.85 Y48.423 E72.46564
G1 X150.502 Y48.62 E72.48829
G1 X151.126 Y48.892 E72.51093
G1 X151.714 Y49.236 E72.53359
G1 X152.258 Y49.646 E72.55624
G1 X152.749 Y50.117 E72.57887
G1 X153.183 Y50.642 E72.60153
G1 X153.552 Y51.214 E72.62417
G1 X153.851 Y51.826 E72.64682
G1 X154.076 Y52.468 E72.66945
G1 X154.225 Y53.133 E72.69212
G1 X154.3 Y54.064 E72.72318
G1 X154.3 Y94.064 E74.05359
G1 X154.26 Y94.744 E74.07624
G1 X154.141 Y95.414 E74.09888
G1 X154.031 Y95.777 E74.11149
G1 X154.076 Y95.904 E74.11597
G1 X154.225 Y96.569 E74.13864
G1 X154.3 Y97.5 E74.16971
G1 X154.3 Y137.5 E75.50011
G1 X154.26 Y138.18 E75.52277
G1 X154.141 Y138.85 E75.5454
G1 X154.015 Y139.269 E75.55995
G1 X154.076 Y139.444 E75.56612
G1 X154.225 Y140.109 E75.58878
G1 X154.3 Y141.04 E75.61985
G1 X154.3 Y181.04 E76.95025
G1 X154.26 Y181.72 E76.97291
G1 X154.141 Y182.39 E76.99554
G1 X153.944 Y183.042 E77.0182
G1 X153.672 Y183.666 E77.04084
G1 X153.328 Y184.254 E77.0635
G1 X152.918 Y184.798 E77.08615
G1 X152.447 Y185.289 E77.10878
G1 X151.922 Y185.723 E77.13144
G1 X151.35 Y186.092 E77.15408
G1 X150.738 Y186.391 E77.17673
G1 X150.096 Y186.616 E77.19936
G1 X149.431 Y186.765 E77.22202
G1 X148.5 Y186.84 E77.25309
G1 X86.5 Y186.84 E79.31522
G1 X85.82 Y186.8 E79.33787
G1 X85.15 Y186.681 E79.36051
G1 X84.498 Y186.484 E79.38316
G1 X83.874 Y186.212 E79.4058
G1 X83.286 Y185.868 E79.42846
G1 X82.742 Y185.458 E79.45112
